LucyL-J/estimu/experimental_data/est_paras.csv
"","ID","model","status","mu_UT_MLE","mu_UT_lower_bound","mu_UT_upper_bound","fitm_UT_MLE","fitm_UT_lower_bound","fitm_UT_upper_bound","mu_S_MLE","mu_S_lower_bound","mu_S_upper_bound","fitm_S_MLE","fitm_S_lower_bound","fitm_S_upper_bound","fitm_ratio_MLE","fitm_ratio_lower_bound","fitm_ratio_upper_bound","M_MLE","M_lower_bound","M_upper_bound","mu_off_MLE","mu_off_lower_bound","mu_off_upper_bound","S_MLE","S_lower_bound","S_upper_bound","mu_on_MLE","mu_on_lower_bound","mu_on_upper_bound","f_on_MLE","f_on_lower_bound","f_on_upper_bound","rel_div_on_MLE","rel_div_on_lower_bound","rel_div_on_upper_bound","mu_inc_MLE","mu_inc_lower_bound","mu_inc_upper_bound","AIC_joint","BIC_joint","LL_joint","p_value_joint","LL_UT","p_value_UT","cutoff_count_UT","tail_prob_UT","LL_S","p_value_S","cutoff_count_S","tail_prob_S","LL_test","p_value_test","cutoff_count_test","tail_prob_test","calc_time"
"1","Baharoglu_Amp","no_SIM_wo_fitm","success","2.48221351008975e-08","1.36700547847287e-08","3.75659164288328e-08","1","1","1","2.48221351008975e-08","1.36700547847287e-08","3.75659164288328e-08","1","1","1","1","1","1","1","1","1","2.48221351008975e-08","1.36700547847287e-08","3.75659164288328e-08","0","0","0",NA,NA,NA,NA,NA,NA,NA,NA,NA,NA,NA,NA,"51.7398048879547","51.3492428003888","-24.8699024439773","0.3598","-14.6757041207779","0.4639","1001","0.0106345564492349","-10.1941983231994","0.236","1001","0.00666936011345554",NA,NA,NA,NA,"0.429594993591309"
"2","Baharoglu_Amp","no_SIM_fitm","success","2.26841870888046e-08","7.70555130650382e-09","4.59572134187617e-08","1.07134861661531","0.670229272607841","1.97907101329271","2.26841870888046e-08","7.70555130650382e-09","4.59572134187617e-08","1.07134861661531","0.670229272607841","1.97907101329271","1","1","1","1","1","1",NA,NA,NA,NA,NA,NA,NA,NA,NA,NA,NA,NA,NA,NA,NA,NA,NA,NA,"53.6659307202317","52.8848065451","-24.8329653601159","0.4447","-14.6174799752866","0.5485","1001","0.0159302753768942","-10.2154853848293","0.2691","1001","0.00999162166624334",NA,NA,NA,NA,"0.733386039733887"
"3","Baharoglu_Amp","no_SIM_fitm_unconstr","success","2.50197059536754e-08","8.77882116788574e-09","5.10062148146472e-08","0.895820717779933","0.512158305453226","1.75587680010067","2.50197059536754e-08","8.77882116788574e-09","5.10062148146472e-08","1.25845501920218","0.720484847460128","2.69492589791446","1.40480678134007","0.716710317677203","3.00833173918232","1","1","1",NA,NA,NA,NA,NA,NA,NA,NA,NA,NA,NA,NA,NA,NA,NA,NA,NA,NA,"54.5290598491123","53.3573735864146","-24.2645299245562","0.4825","-14.5384240631402","0.3298","1001","0.00450568157433795","-9.72610586141594","0.561","1001","0.0315958780704382",NA,NA,NA,NA,"1.35512709617615"
"4","Baharoglu_Amp","hom_wo_fitm","success","1.92339367349197e-08","8.41554295120489e-09","3.25941891567763e-08","1","1","1","4.97663178234632e-08","2.1886500484687e-08","7.93050142706066e-08","1","1","1","1","1","1","2.58742235192607","1.13791059970326","5.91361937215684",NA,NA,NA,NA,NA,NA,NA,NA,NA,NA,NA,NA,NA,NA,NA,NA,NA,NA,"49.9606046971772","45.9606046971772","-22.9803023485886","0.6792","-14.30925515805","0.4126","1001","0.00810043316496423","-8.67104719053857","0.9167","1001","0.0140494239835066","-9.63003889358952","0.2472","1001","0.00511197770264449","0.536783695220947"
"5","Baharoglu_Amp","hom_fitm","success","2.43770492257953e-08","8.55065025947664e-09","4.93455272515025e-08","0.809444541393878","0.491273123626822","1.46408294758818","6.57077639876762e-08","1.97752019060708e-08","1.16726512334801e-07","0.809444541393878","0.491273123626822","1.46408294758818","1","1","1","2.69547652708292","0.811222134512699","7.68453415748733",NA,NA,NA,NA,NA,NA,NA,NA,NA,NA,NA,NA,NA,NA,NA,NA,NA,NA,"51.3588500411009","50.1871637784032","-22.6794250205505","0.4209","-14.6711537178563","0.1903","1001","0.00182329020784799","-8.00827130269413","0.942","1001","0.00330093329282766",NA,NA,NA,NA,"0.839530944824219"
"6","Baharoglu_Amp","hom_fitm_unconstr","failed",NA,NA,NA,NA,NA,NA,NA,NA,NA,NA,NA,NA,NA,NA,NA,NA,NA,NA,NA,NA,NA,NA,NA,NA,NA,NA,NA,NA,NA,NA,NA,NA,NA,NA,NA,NA,"Inf","Inf","-Inf","0","-Inf","0","0","1","-Inf","0","0","1",NA,NA,NA,NA,"0"
"7","Baharoglu_Amp","het_zero_div","success",NA,NA,NA,NA,NA,NA,NA,NA,NA,NA,NA,NA,NA,NA,NA,NA,NA,NA,"1.70234836668172e-08","6.92933992622292e-09","2.99926325109173e-08","8.55626269500439","2.37125944336804","25.7923949116032",NA,NA,NA,NA,NA,NA,"0","0","0",NA,NA,NA,"46.7445459968696","45.9634218217378","-21.3722729984348","0.6225","-14.3738855016912","0.3557","1001","0.00712142264277715","-6.99838750234204","0.9601","1001","0.00468510389482835",NA,NA,NA,NA,"0.229650974273682"
"8","Baharoglu_Amp","het_div","failed",NA,NA,NA,NA,NA,NA,NA,NA,NA,NA,NA,NA,NA,NA,NA,NA,NA,NA,NA,NA,NA,NA,NA,NA,NA,NA,NA,NA,NA,NA,NA,NA,NA,NA,NA,NA,"Inf","Inf","-Inf","0","-Inf","0","0","1","-Inf","0","0","1",NA,NA,NA,NA,"0"
"9","Baharoglu_Amp","het_zero_div_fon","NA",NA,NA,NA,NA,NA,NA,NA,NA,NA,NA,NA,NA,NA,NA,NA,NA,NA,NA,NA,NA,NA,NA,NA,NA,NA,NA,NA,NA,NA,NA,NA,NA,NA,NA,NA,NA,"Inf","Inf","-Inf","0","-Inf","0","0","1","-Inf","0","0","1",NA,NA,NA,NA,"0"
"10","Baharoglu_Amp","het_div_fon","NA",NA,NA,NA,NA,NA,NA,NA,NA,NA,NA,NA,NA,NA,NA,NA,NA,NA,NA,NA,NA,NA,NA,NA,NA,NA,NA,NA,NA,NA,NA,NA,NA,NA,NA,NA,NA,"Inf","Inf","-Inf","0","-Inf","0","0","1","-Inf","0","0","1",NA,NA,NA,NA,"0"
"11","Baharoglu_Cip","no_SIM_wo_fitm","success","2.73591094223019e-08","1.56777665207181e-08","4.08095734184026e-08","1","1","1","2.73591094223019e-08","1.56777665207181e-08","4.08095734184026e-08","1","1","1","1","1","1","1","1","1","2.73591094223019e-08","1.56777665207181e-08","4.08095734184026e-08","0","0","0",NA,NA,NA,NA,NA,NA,NA,NA,NA,NA,NA,NA,"71.2118373645714","71.0035968337994","-34.6059186822857","0.0794","-15.0603599536404","0.4457","1001","0.0118136893654862","-19.5455587286452","0.0348","1001","0.00783487207290934",NA,NA,NA,NA,"0.170813798904419"
"12","Baharoglu_Cip","no_SIM_fitm","success","1.92922368165823e-08","6.92681341846207e-09","3.75215252967619e-08","1.31719734173675","0.877872913720099","2.30728920295309","1.92922368165823e-08","6.92681341846207e-09","3.75215252967619e-08","1.31719734173675","0.877872913720099","2.30728920295309","1","1","1","1","1","1",NA,NA,NA,NA,NA,NA,NA,NA,NA,NA,NA,NA,NA,NA,NA,NA,NA,NA,"71.5504448426444","71.1339637811005","-33.7752224213222","0.2894","-15.0443626411212","0.7025","1001","0.0500717204956745","-18.730859780201","0.113","1001","0.0333164831893349",NA,NA,NA,NA,"0.36777400970459"
"13","Baharoglu_Cip","no_SIM_fitm_unconstr","success","2.63179715194089e-08","9.99390723605758e-09","5.22017818414746e-08","0.872188595142734","0.501851409459867","1.65681188258937","2.63179715194089e-08","9.99390723605758e-09","5.22017818414746e-08","1.5097848972761","0.981388251728634","2.72167961899921","1.73103031349433","0.91125909533949","3.12051732177695","1","1","1",NA,NA,NA,NA,NA,NA,NA,NA,NA,NA,NA,NA,NA,NA,NA,NA,NA,NA,"70.0738537269811","69.4491321346653","-32.0369268634905","0.35","-14.6286608681492","0.287","1001","0.00380165716354397","-17.4082659953414","0.4253","1001","0.0961006521837696",NA,NA,NA,NA,"1.97190499305725"
"14","Baharoglu_Cip","hom_wo_fitm","success","1.92339367349197e-08","8.41554295120489e-09","3.25941891567763e-08","1","1","1","7.93257377743004e-08","4.45386098301284e-08","1.13884769055282e-07","1","1","1","1","1","1","4.12425905666428","2.3156263038584","9.42609861707652",NA,NA,NA,NA,NA,NA,NA,NA,NA,NA,NA,NA,NA,NA,NA,NA,NA,NA,"63.0232292112524","59.0232292112524","-29.5116146056262","0.6846","-14.30925515805","0.4146","1001","0.00810043316496423","-15.2023594475762","0.8059","1001","0.0253951037052107","-19.393136833017","0.0245","1001","0.00541642630125816","0.258609056472778"
"15","Baharoglu_Cip","hom_fitm","success","2.35420936469756e-08","8.9876778316138e-09","4.47903329520759e-08","0.835902161674476","0.558852888567197","1.36027123363451","1.04214360849776e-07","3.80566272632207e-08","1.79048450216673e-07","0.835902161674476","0.558852888567197","1.36027123363451","1","1","1","4.42672442020312","1.61653537845432","11.5952488287025",NA,NA,NA,NA,NA,NA,NA,NA,NA,NA,NA,NA,NA,NA,NA,NA,NA,NA,"64.3855856765845","63.7608640842687","-29.1927928382923","0.4484","-14.5815832579356","0.2276","1001","0.00234077508513342","-14.6112095803567","0.7049","1001","0.00794084148210084",NA,NA,NA,NA,"1.0459258556366"
"16","Baharoglu_Cip","hom_fitm_unconstr","success","1.80492584354703e-08","4.20288449090014e-09","4.0603910699057e-08","1.05523219896159","0.595672987840607","2.47621424025359","1.42040682922247e-07","4.71604798236632e-08","2.66226953466329e-07","0.655181165922218","0.298196667653514","1.26070800357024","0.620888148188576","0.264589854654548","1.19472093896571","7.86961322705141","2.61287631246853","33.7959996830237",NA,NA,NA,NA,NA,NA,NA,NA,NA,NA,NA,NA,NA,NA,NA,NA,NA,NA,"65.1648580176298","60.7483769560859","-28.5824290088149","0.4937","-14.2952726055993","0.4606","1001","0.01121217012523","-14.2871564032156","0.4187","1001","0.00101700954192097","-Inf","0","1001","0.00336351400714163","0.438672065734863"
"17","Baharoglu_Cip","het_zero_div","success",NA,NA,NA,NA,NA,NA,NA,NA,NA,NA,NA,NA,NA,NA,NA,NA,NA,NA,"2.14353921997458e-08","1.10219763683844e-08","3.41456277520829e-08","10.8752692777096","4.52837825099225","25.5905359943744",NA,NA,NA,NA,NA,NA,"0","0","0",NA,NA,NA,"62.9160094874801","62.4995284259362","-29.45800474374","0.3605","-14.3688413171474","0.4484","1001","0.00908852294048057","-15.0891634335133","0.269","1001","0.00648947877540884",NA,NA,NA,NA,"0.3139328956604"
"18","Baharoglu_Cip","het_div","success",NA,NA,NA,NA,NA,NA,NA,NA,NA,NA,NA,NA,NA,NA,NA,"9.8976341408196e-06","2.28698863953902e-15","0.00110895033660005","1.91371796166138e-08","8.97870339263507e-09","3.24617900396945e-08","19.599362369657","4.51373094068685","296.123431927663","1.80217808079491e-13","4.16418586323383e-23","2.01930339656972e-11","0.999999519517451","0.999946165793062","1","8.82895439074392e-07","0","12464833.9001454","9.4171561165176e-06","2.17596633707651e-15","0.00105517293406008","65.2854638454459","64.4525017223581","-28.642731922723","0.4873","-14.309374485168","0.4085","1001","0.00805730584844966","-14.3333574375549","0.4742","1001","0.0029038534263367",NA,NA,NA,NA,"12.4880979061127"
"19","Baharoglu_Cip","het_zero_div_fon","success",NA,NA,NA,NA,NA,NA,NA,NA,NA,NA,NA,NA,NA,NA,NA,"3.56258078331288","1.65851347529768","7.97716079831231","2.14353921997458e-08","1.10219763683844e-08","3.41456277520829e-08","10.8752692777096","4.52837825099225","25.5905359943744","9.99067123909508e-08","4.16003845023505e-08","2.35089932417626e-07","0.7","0.7","0.7","0","0","0","4.66082969044697","1.94073353613954","10.9673725690176","62.9160094874801","62.4995284259362","-29.45800474374","0.3659","-14.3688413171474","0.4561","1001","0.00908852294048057","-15.0891634335133","0.2683","1001","0.00648947877540884",NA,NA,NA,NA,"0.343285083770752"
"20","Baharoglu_Cip","het_div_fon","success",NA,NA,NA,NA,NA,NA,NA,NA,NA,NA,NA,NA,NA,NA,NA,"0.320800331735691","0.3","29.9083108530492","2.75749372874022e-08","2.04348127325198e-08","4.50820619403282e-08","0.0693344391189705","0","98.6943695101638","8.1938263309835e-10","0","1.16635330708391e-06","0.7","0.7","0.7","0.00993225093985222","0","1.07384352046297e+96","0.0297147596224159","0","42.2975869329274","73.0590458366848","72.434324244369","-33.5295229183424","0.1186","-15.0988182503965","0.4447","1001","0.0119148450144069","-18.4307046679459","0.0634","1001","0.00771550884453431",NA,NA,NA,NA,"4.46022200584412"
"21","Baharoglu_Cm","no_SIM_wo_fitm","success","2.35273901425395e-08","1.32395410700383e-08","3.51197155378809e-08","1","1","1","2.35273901425395e-08","1.32395410700383e-08","3.51197155378809e-08","1","1","1","1","1","1","1","1","1","2.35273901425395e-08","1.32395410700383e-08","3.51197155378809e-08","0","0","0",NA,NA,NA,NA,NA,NA,NA,NA,NA,NA,NA,NA,"50.2838832096775","49.8933211221116","-24.1419416048387","0.4962","-14.5292843591773","0.4702","1001","0.0100397587180654","-9.61265724566145","0.3853","1001","0.00871481057706425",NA,NA,NA,NA,"0.165674924850464"
"22","Baharoglu_Cm","no_SIM_fitm","success","2.35775327505672e-08","8.24626926187428e-09","4.61447555715366e-08","0.998358490461474","0.62096984126056","1.82183495638251","2.35775327505672e-08","8.24626926187428e-09","4.61447555715366e-08","0.998358490461474","0.62096984126056","1.82183495638251","1","1","1","1","1","1",NA,NA,NA,NA,NA,NA,NA,NA,NA,NA,NA,NA,NA,NA,NA,NA,NA,NA,"52.2838424337586","51.5027182586268","-24.1419212168793","0.4844","-14.5309540766035","0.4587","1001","0.00993941882591631","-9.61096714027583","0.393","1001","0.00862771504834225",NA,NA,NA,NA,"0.2652268409729"
"23","Baharoglu_Cm","no_SIM_fitm_unconstr","success","2.41266052406124e-08","8.59094377190575e-09","4.71059116217993e-08","0.912941028859741","0.536409376758663","1.77794246631494","2.41266052406124e-08","8.59094377190575e-09","4.71059116217993e-08","1.1003510168212","0.625808794570818","2.2745536865539","1.20528159216979","0.618890114651373","2.49145740486087","1","1","1",NA,NA,NA,NA,NA,NA,NA,NA,NA,NA,NA,NA,NA,NA,NA,NA,NA,NA,"53.9051733827069","52.7334871200092","-23.9525866913534","0.4928","-14.4835092650555","0.3538","1001","0.00506264112930999","-9.46907742629789","0.5495","1001","0.0177732179226846",NA,NA,NA,NA,"1.29156994819641"
"24","Baharoglu_Cm","hom_wo_fitm","success","1.92339367349197e-08","8.41554295120489e-09","3.25941891567763e-08","1","1","1","3.41586101649125e-08","1.42499894386479e-08","5.61192487427227e-08","1","1","1","1","1","1","1.77595521060942","0.740877420729821","4.05899065134257",NA,NA,NA,NA,NA,NA,NA,NA,NA,NA,NA,NA,NA,NA,NA,NA,NA,NA,"50.8143241562506","46.8143241562506","-23.4071620781253","0.596","-14.30925515805","0.4019","1001","0.00810043316496423","-9.0979069200753","0.6973","1001","0.0130213584139192","-9.78129101633639","0.3035","1001","0.00704330429643762","0.242349147796631"
"25","Baharoglu_Cm","hom_fitm","success","2.15928756517297e-08","7.28364066342879e-09","4.32072415511958e-08","0.903915261031526","0.57237240413974","1.61848902981422","3.90525735306874e-08","1.09213103004594e-08","7.45286801337495e-08","0.903915261031526","0.57237240413974","1.61848902981422","1","1","1","1.8085860429414","0.505783040508759","5.36168316577871",NA,NA,NA,NA,NA,NA,NA,NA,NA,NA,NA,NA,NA,NA,NA,NA,NA,NA,"52.6580992310915","51.4864129683938","-23.3290496155457","0.4761","-14.4171950984633","0.3055","1001","0.00414972735923391","-8.91185451708244","0.6505","1001","0.00679956417106831",NA,NA,NA,NA,"0.808003902435303"
"26","Baharoglu_Cm","hom_fitm_unconstr","success","1.80492584354703e-08","4.20288449090014e-09","4.0603910699057e-08","1.05523219896159","0.595672987840607","2.47621424025359","5.47538292579128e-08","1.08194616892733e-08","1.19447809713893e-07","0.673848152013214","0.219353839468563","1.79666178222431","0.638578080422795","0.207872579783313","1.70262221337857","3.03357777571131","0.599440787440384","13.0276788183122",NA,NA,NA,NA,NA,NA,NA,NA,NA,NA,NA,NA,NA,NA,NA,NA,NA,NA,"53.9078725616796","49.1267483865478","-22.9539362808398","0.49","-14.2952726055993","0.4594","1001","0.01121217012523","-8.65866367524055","0.39","1001","0.000621194286051896","-9.81282644850623","0.24","1001","0.00436726746177696","0.36338210105896"
"27","Baharoglu_Cm","het_zero_div","success",NA,NA,NA,NA,NA,NA,NA,NA,NA,NA,NA,NA,NA,NA,NA,NA,NA,NA,"1.89211866974433e-08","8.81439522633768e-09","3.16694415476412e-08","3.22528200774673","0","10.9764728612059",NA,NA,NA,NA,NA,NA,"0","0","0",NA,NA,NA,"50.1202708896767","49.3391467145449","-23.0601354448384","0.5139","-14.3105063790385","0.4036","1001","0.00796112261877413","-8.74962907197366","0.511","1001","0.00708015824342001",NA,NA,NA,NA,"0.226736068725586"
"28","Baharoglu_Cm","het_div","failed",NA,NA,NA,NA,NA,NA,NA,NA,NA,NA,NA,NA,NA,NA,NA,NA,NA,NA,NA,NA,NA,NA,NA,NA,NA,NA,NA,NA,NA,NA,NA,NA,NA,NA,NA,NA,"Inf","Inf","-Inf","0","-Inf","0","0","1","-Inf","0","0","1",NA,NA,NA,NA,"0"
"29","Baharoglu_Cm","het_zero_div_fon","NA",NA,NA,NA,NA,NA,NA,NA,NA,NA,NA,NA,NA,NA,NA,NA,NA,NA,NA,NA,NA,NA,NA,NA,NA,NA,NA,NA,NA,NA,NA,NA,NA,NA,NA,NA,NA,"Inf","Inf","-Inf","0","-Inf","0","0","1","-Inf","0","0","1",NA,NA,NA,NA,"0"
"30","Baharoglu_Cm","het_div_fon","NA",NA,NA,NA,NA,NA,NA,NA,NA,NA,NA,NA,NA,NA,NA,NA,NA,NA,NA,NA,NA,NA,NA,NA,NA,NA,NA,NA,NA,NA,NA,NA,NA,NA,NA,NA,NA,"Inf","Inf","-Inf","0","-Inf","0","0","1","-Inf","0","0","1",NA,NA,NA,NA,"0"
"31","Baharoglu_Genta","no_SIM_wo_fitm","success","2.33038223340939e-08","1.29372875151094e-08","3.51942263664972e-08","1","1","1","2.33038223340939e-08","1.29372875151094e-08","3.51942263664972e-08","1","1","1","1","1","1","1","1","1","2.33038223340939e-08","1.29372875151094e-08","3.51942263664972e-08","0","0","0",NA,NA,NA,NA,NA,NA,NA,NA,NA,NA,NA,NA,"52.5863532278563","52.1957911402904","-25.2931766139281","0.3277","-14.5075674677437","0.4609","1001","0.00993752544713444","-10.7856091461844","0.2039","1001","0.00768474622995752",NA,NA,NA,NA,"0.161987066268921"
"32","Baharoglu_Genta","no_SIM_fitm","success","2.07804475830838e-08","7.0832687063157e-09","4.05361869538887e-08","1.09692076520114","0.689165078160939","2.03313196188795","2.07804475830838e-08","7.0832687063157e-09","4.05361869538887e-08","1.09692076520114","0.689165078160939","2.03313196188795","1","1","1","1","1","1",NA,NA,NA,NA,NA,NA,NA,NA,NA,NA,NA,NA,NA,NA,NA,NA,NA,NA,"54.4522299236263","53.6711057484945","-25.2261149618132","0.433","-14.4765760864705","0.5579","1001","0.0170866832516121","-10.7495388753427","0.2521","1001","0.0132136672998637",NA,NA,NA,NA,"0.325605154037476"
"33","Baharoglu_Genta","no_SIM_fitm_unconstr","success","2.19208992452085e-08","7.69873435186909e-09","4.24778905435735e-08","0.958753012357485","0.569622668462712","1.88555604701546","2.19208992452085e-08","7.69873435186909e-09","4.24778905435735e-08","1.27164503770601","0.713802123124263","2.70186251886253","1.32635310795964","0.674413810037008","2.8181006829057","1","1","1",NA,NA,NA,NA,NA,NA,NA,NA,NA,NA,NA,NA,NA,NA,NA,NA,NA,NA,"55.706125883609","54.5344396209113","-24.8530629418045","0.4613","-14.3753054500198","0.4028","1001","0.00674853511016293","-10.4777574917847","0.4396","1001","0.0360635702395008",NA,NA,NA,NA,"1.70570802688599"
"34","Baharoglu_Genta","hom_wo_fitm","success","1.92339367349197e-08","8.41554295120489e-09","3.25941891567763e-08","1","1","1","3.56916272721112e-08","1.3815612968298e-08","6.17335471879902e-08","1","1","1","1","1","1","1.85565897215998","0.718293564063535","4.24115561872346",NA,NA,NA,NA,NA,NA,NA,NA,NA,NA,NA,NA,NA,NA,NA,NA,NA,NA,"53.0769111173777","49.0769111173777","-24.5384555586889","0.43","-14.30925515805","0.4023","1001","0.00810043316496423","-10.2292004006388","0.377","1001","0.012126828870209","-10.6791095784332","0.181","1001","0.00628141647070002","0.236691951751709"
"35","Baharoglu_Genta","hom_fitm","success","1.84634049468484e-08","5.81510998088414e-09","3.75042137364597e-08","1.03533699604438","0.67028116145193","1.8593957929966","3.42204046375882e-08","8.81305185991832e-09","6.90027448308161e-08","1.03533699604438","0.67028116145193","1.8593957929966","1","1","1","1.85341786826971","0.477325384201285","5.88473902472697",NA,NA,NA,NA,NA,NA,NA,NA,NA,NA,NA,NA,NA,NA,NA,NA,NA,NA,"55.0562478001448","53.8845615374471","-24.5281239000724","0.4751","-14.2969952841845","0.4321","1001","0.0100172330703135","-10.2311286158879","0.4115","1001","0.0149781338829676",NA,NA,NA,NA,"0.814826011657715"
"36","Baharoglu_Genta","hom_fitm_unconstr","success","1.80492584354703e-08","4.20288449090014e-09","4.0603910699057e-08","1.05523219896159","0.595672987840607","2.47621424025359","3.52737161143952e-08","4.94664685997984e-09","7.73526554922046e-08","1.00984436851423","0.530327558071736","2.9517077027572","0.956987826478358","0.407817850369364","2.79721155747699","1.95430278980744","0.274063717225008","8.39273984111815",NA,NA,NA,NA,NA,NA,NA,NA,NA,NA,NA,NA,NA,NA,NA,NA,NA,NA,"57.0482254444325","52.2671012693007","-24.5241127222163","0.4848","-14.2952726055993","0.4618","1001","0.01121217012523","-10.228840116617","0.3932","1001","0.0128832426050273","-8.27596667642405","0.4524","1001","0.00389756096815608","0.3934166431427"
"37","Baharoglu_Genta","het_zero_div","success",NA,NA,NA,NA,NA,NA,NA,NA,NA,NA,NA,NA,NA,NA,NA,NA,NA,NA,"1.98490264436944e-08","9.33796726969811e-09","3.28911451542434e-08","2.51186852341039","0","9.21543035368426",NA,NA,NA,NA,NA,NA,"0","0","0",NA,NA,NA,"53.2283140366035","52.4471898614717","-24.6141570183017","0.3332","-14.3140218198749","0.4173","1001","0.00837518530245929","-10.3001352048783","0.2319","1001","0.00659878345777887",NA,NA,NA,NA,"0.256484985351562"
"38","Baharoglu_Genta","het_div","success",NA,NA,NA,NA,NA,NA,NA,NA,NA,NA,NA,NA,NA,NA,NA,"1.84040336346635","2.27361284516711e-16","80.2283382323611","1.92336912419789e-08","8.41545787667201e-09","3.25939919970944e-08","1.04788839245587","0","89.2731918847526","1.78773820843275e-07","0","Inf","0.101316570646067","0","1","1.01847953732496","0","65562.9948577758","9.29482638533201","0","Inf","57.0762799378523","55.5140315875887","-24.5381399689261","0.4391","-14.3092551588173","0.404","1001","0.00810032371012692","-10.2288848101088","0.3884","1001","0.0127937758789498",NA,NA,NA,NA,"2.21407198905945"
"39","Baharoglu_Genta","het_zero_div_fon","NA",NA,NA,NA,NA,NA,NA,NA,NA,NA,NA,NA,NA,NA,NA,NA,NA,NA,NA,NA,NA,NA,NA,NA,NA,NA,NA,NA,NA,NA,NA,NA,NA,NA,NA,NA,NA,"Inf","Inf","-Inf","0","-Inf","0","0","1","-Inf","0","0","1",NA,NA,NA,NA,"0"
"40","Baharoglu_Genta","het_div_fon","NA",NA,NA,NA,NA,NA,NA,NA,NA,NA,NA,NA,NA,NA,NA,NA,NA,NA,NA,NA,NA,NA,NA,NA,NA,NA,NA,NA,NA,NA,NA,NA,NA,NA,NA,NA,NA,"Inf","Inf","-Inf","0","-Inf","0","0","1","-Inf","0","0","1",NA,NA,NA,NA,"0"
"41","Baharoglu_Kan","no_SIM_wo_fitm","success","2.2582379531852e-08","1.2893500614355e-08","3.33850220493743e-08","1","1","1","2.2582379531852e-08","1.2893500614355e-08","3.33850220493743e-08","1","1","1","1","1","1","1","1","1","2.2582379531852e-08","1.2893500614355e-08","3.33850220493743e-08","0","0","0",NA,NA,NA,NA,NA,NA,NA,NA,NA,NA,NA,NA,"48.3020090887358","47.9114470011699","-23.1510045443679","0.617","-14.4448407825824","0.4632","1001","0.00960856708545132","-8.70616376178543","0.6176","1001","0.00905893885644948",NA,NA,NA,NA,"0.195727109909058"
"42","Baharoglu_Kan","no_SIM_fitm","success","2.59221676452883e-08","9.33133899435693e-09","5.0604636878173e-08","0.898306025812227","0.530526367904722","1.64508931920625","2.59221676452883e-08","9.33133899435693e-09","5.0604636878173e-08","0.898306025812227","0.530526367904722","1.64508931920625","1","1","1","1","1","1",NA,NA,NA,NA,NA,NA,NA,NA,NA,NA,NA,NA,NA,NA,NA,NA,NA,NA,"50.1469606592483","49.3658364841165","-23.0734803296242","0.4798","-14.6061810008955","0.3341","1001","0.00478772265326899","-8.46729932872867","0.5811","1001","0.00451400734572338",NA,NA,NA,NA,"0.243154048919678"
"43","Baharoglu_Kan","no_SIM_fitm_unconstr","success","2.57932398799997e-08","9.32831692796976e-09","5.05199150036359e-08","0.881544731658411","0.512117663911715","1.70285430660713","2.57932398799997e-08","9.32831692796976e-09","5.05199150036359e-08","0.927872840028393","0.484460018523111","1.94536502099622","1.05255332679809","0.54489267603706","2.20676835914666","1","1","1",NA,NA,NA,NA,NA,NA,NA,NA,NA,NA,NA,NA,NA,NA,NA,NA,NA,NA,"52.1169648903648","50.9452786276671","-23.0584824451824","0.4822","-14.5907545352166","0.3101","1001","0.00407121119371257","-8.46772790996579","0.6381","1001","0.00584319466889027",NA,NA,NA,NA,"0.918815851211548"
"44","Baharoglu_Kan","hom_wo_fitm","success","1.92339367349197e-08","8.41554295120489e-09","3.25941891567763e-08","1","1","1","2.85044823675084e-08","1.20133090288594e-08","4.66358798820732e-08","1","1","1","1","1","1","1.48198898438497","0.624589193279861","3.38712338975435",NA,NA,NA,NA,NA,NA,NA,NA,NA,NA,NA,NA,NA,NA,NA,NA,NA,NA,"49.5696826419146","45.5696826419146","-22.7848413209573","0.6769","-14.30925515805","0.4062","1001","0.00810043316496423","-8.47558616290728","0.8661","1001","0.0116335427928047","-8.92079931679807","0.4866","1001","0.00764142920633049","0.245949029922485"
"45","Baharoglu_Kan","hom_fitm","success","2.33459830894685e-08","8.02801616628032e-09","4.72405640060089e-08","0.84232780410833","0.515392873958339","1.52596512520223","3.54528331815242e-08","1.04416842032541e-08","6.49229352045363e-08","0.84232780410833","0.515392873958339","1.52596512520223","1","1","1","1.51858386282808","0.447258278361573","4.41613873804028",NA,NA,NA,NA,NA,NA,NA,NA,NA,NA,NA,NA,NA,NA,NA,NA,NA,NA,"51.1643074045749","49.9926211418772","-22.5821537022874","0.4598","-14.5621838939179","0.2375","1001","0.00248108657224178","-8.01996980836956","0.8287","1001","0.00365482876302814",NA,NA,NA,NA,"0.636045932769775"
"46","Baharoglu_Kan","hom_fitm_unconstr","success","1.80492584354703e-08","4.20288449090014e-09","4.0603910699057e-08","1.05523219896159","0.595672987840607","2.47621424025359","8.53467694740721e-08","2.15817487427185e-08","1.35952176622571e-07","0.226820034431929","0.00983297297293782","1.11482403781505","0.214947984581151","0.0093183026281932","1.05647272601434","4.72854714664337","1.1957138748873","20.3067130821369",NA,NA,NA,NA,NA,NA,NA,NA,NA,NA,NA,NA,NA,NA,NA,NA,NA,NA,"50.3208515383552","45.5397273632234","-21.1604257691776","0.4632","-14.2952726055993","0.4521","1001","0.01121217012523","-6.86515316357836","0.356","76","2.55650204101346e-05","-9.01165452357934","0.3777","1001","0.0047355685120688","0.267422914505005"
"47","Baharoglu_Kan","het_zero_div","success",NA,NA,NA,NA,NA,NA,NA,NA,NA,NA,NA,NA,NA,NA,NA,NA,NA,NA,"1.70850956420758e-08","7.14585488668248e-09","2.99357956809691e-08","3.21096423486056","0","12.6624601924381",NA,NA,NA,NA,NA,NA,"0","0","0",NA,NA,NA,"48.2022970037386","47.4211728286068","-22.1011485018693","0.5958","-14.3702631301184","0.3586","1001","0.0071485344070702","-7.73088537736825","0.8182","1001","0.00689438003989451",NA,NA,NA,NA,"0.213833093643188"
"48","Baharoglu_Kan","het_div","failed",NA,NA,NA,NA,NA,NA,NA,NA,NA,NA,NA,NA,NA,NA,NA,NA,NA,NA,NA,NA,NA,NA,NA,NA,NA,NA,NA,NA,NA,NA,NA,NA,NA,NA,NA,NA,"Inf","Inf","-Inf","0","-Inf","0","0","1","-Inf","0","0","1",NA,NA,NA,NA,"0"
"49","Baharoglu_Kan","het_zero_div_fon","NA",NA,NA,NA,NA,NA,NA,NA,NA,NA,NA,NA,NA,NA,NA,NA,NA,NA,NA,NA,NA,NA,NA,NA,NA,NA,NA,NA,NA,NA,NA,NA,NA,NA,NA,NA,NA,"Inf","Inf","-Inf","0","-Inf","0","0","1","-Inf","0","0","1",NA,NA,NA,NA,"0"
"50","Baharoglu_Kan","het_div_fon","NA",NA,NA,NA,NA,NA,NA,NA,NA,NA,NA,NA,NA,NA,NA,NA,NA,NA,NA,NA,NA,NA,NA,NA,NA,NA,NA,NA,NA,NA,NA,NA,NA,NA,NA,NA,NA,"Inf","Inf","-Inf","0","-Inf","0","0","1","-Inf","0","0","1",NA,NA,NA,NA,"0"
"51","Baharoglu_MMC","no_SIM_wo_fitm","success","2.63223415883872e-08","1.54813923557962e-08","3.84431885762938e-08","1","1","1","2.63223415883872e-08","1.54813923557962e-08","3.84431885762938e-08","1","1","1","1","1","1","1","1","1","2.63223415883872e-08","1.54813923557962e-08","3.84431885762938e-08","0","0","0",NA,NA,NA,NA,NA,NA,NA,NA,NA,NA,NA,NA,"67.5924028684618","67.3841623376898","-32.7962014342309","0.1716","-14.8879710423955","0.4585","1001","0.0113296202133952","-17.9082303918354","0.0966","1001","0.00858441413703848",NA,NA,NA,NA,"0.174459934234619"
"52","Baharoglu_MMC","no_SIM_fitm","success","2.08704759971447e-08","7.56362583151632e-09","4.06425899799592e-08","1.19394741488992","0.774737631319716","2.10205545843244","2.08704759971447e-08","7.56362583151632e-09","4.06425899799592e-08","1.19394741488992","0.774737631319716","2.10205545843244","1","1","1","1","1","1",NA,NA,NA,NA,NA,NA,NA,NA,NA,NA,NA,NA,NA,NA,NA,NA,NA,NA,"69.0004069965684","68.5839259350245","-32.5002034982842","0.346","-14.7966869645855","0.6479","1001","0.0300728009208522","-17.7035165336986","0.167","1001","0.0228051394745358",NA,NA,NA,NA,"0.558738946914673"
"53","Baharoglu_MMC","no_SIM_fitm_unconstr","success","2.4082943364715e-08","9.19431615069072e-09","4.59963884542229e-08","0.913792494377064","0.543049968294716","1.73493076341824","2.4082943364715e-08","9.19431615069072e-09","4.59963884542229e-08","1.36831520895695","0.849054460397349","2.53458707780195","1.49740254748944","0.788685772255851","2.77370091503082","1","1","1",NA,NA,NA,NA,NA,NA,NA,NA,NA,NA,NA,NA,NA,NA,NA,NA,NA,NA,"69.0296027572244","68.4048811649085","-31.5148013786122","0.3811","-14.480981287776","0.3459","1001","0.00509131967802412","-17.0338200908361","0.405","1001","0.0596410306745896",NA,NA,NA,NA,"4.69518899917603"
"54","Baharoglu_MMC","hom_wo_fitm","success","1.92339367349197e-08","8.41554295120489e-09","3.25941891567763e-08","1","1","1","4.59489668823304e-08","2.36658341009568e-08","7.01127437279958e-08","1","1","1","1","1","1","2.38895279295106","1.23042071038899","5.46001216424802",NA,NA,NA,NA,NA,NA,NA,NA,NA,NA,NA,NA,NA,NA,NA,NA,NA,NA,"65.4901991495911","61.4901991495911","-30.7450995747955","0.3909","-14.30925515805","0.4116","1001","0.00810043316496423","-16.4358444167455","0.3432","1001","0.0157054911007826","-18.1364610559534","0.0597","1001","0.00616922083848193","0.275155067443848"
"55","Baharoglu_MMC","hom_fitm","success","1.88525575228736e-08","6.31501490747332e-09","3.76312911788722e-08","1.01722703644671","0.670504547014701","1.72224846003049","4.49510405324432e-08","1.4747808457136e-08","8.14427711425257e-08","1.01722703644671","0.670504547014701","1.72224846003049","1","1","1","2.38434708277137","0.782270969826916","7.11812104817792",NA,NA,NA,NA,NA,NA,NA,NA,NA,NA,NA,NA,NA,NA,NA,NA,NA,NA,"67.4845575968185","66.8598360045027","-30.7422787984093","0.4232","-14.3017247789771","0.4252","1001","0.00900233857076305","-16.4405540194322","0.373","1001","0.0174184000182187",NA,NA,NA,NA,"2.07863807678223"
"56","Baharoglu_MMC","hom_fitm_unconstr","success","1.80492584354703e-08","4.20288449090014e-09","4.0603910699057e-08","1.05523219896159","0.595672987840607","2.47621424025359","4.71519627113054e-08","1.03197616825103e-08","9.2778095311677e-08","0.979760088067464","0.539296779664408","2.20090786101639","0.928478195634676","0.395668546016894","2.08570953689835","2.6124044309013","0.571755439117098","11.2189527962037",NA,NA,NA,NA,NA,NA,NA,NA,NA,NA,NA,NA,NA,NA,NA,NA,NA,NA,"69.4582239280059","65.041742866462","-30.7291119640029","0.4153","-14.2952726055993","0.4581","1001","0.01121217012523","-16.4338393584037","0.3188","1001","0.0138313224077172","-Inf","0","1001","0.00382833796768256","0.666996955871582"
"57","Baharoglu_MMC","het_zero_div","success",NA,NA,NA,NA,NA,NA,NA,NA,NA,NA,NA,NA,NA,NA,NA,NA,NA,NA,"1.9137457931045e-08","8.84149054187051e-09","3.20882464082406e-08","5.39451068935498","0.64554624275263","15.7024388627737",NA,NA,NA,NA,NA,NA,"0","0","0",NA,NA,NA,"64.755028281573","64.3385472200291","-30.3775141407865","0.2357","-14.3093738053763","0.4109","1001","0.00805742986476798","-16.068140341649","0.1711","1001","0.00634587700790135",NA,NA,NA,NA,"0.551041841506958"
"58","Baharoglu_MMC","het_div","success",NA,NA,NA,NA,NA,NA,NA,NA,NA,NA,NA,NA,NA,NA,NA,"2.46903950364729","2.75618149243265e-16","82.6262989361655","1.92363740493206e-08","8.41654890433986e-09","3.25934355928334e-08","1.48254758845703","0.0357749143804919","83.0783464031646","5.21274062496593e-06","3.16622727563915e-24","Inf","0.0054412188803735","0","1","0.955824499430033","0","94204.1654896512","270.983534194171","1.64595846780749e-16","Inf","69.4852279966841","68.6522658735963","-30.7426139983421","0.3777","-14.3092552336394","0.4008","1001","0.00810151986834473","-16.4333587647027","0.3224","1001","0.0134389238206871",NA,NA,NA,NA,"8.75009298324585"
"59","Baharoglu_MMC","het_zero_div_fon","NA",NA,NA,NA,NA,NA,NA,NA,NA,NA,NA,NA,NA,NA,NA,NA,NA,NA,NA,NA,NA,NA,NA,NA,NA,NA,NA,NA,NA,NA,NA,NA,NA,NA,NA,NA,NA,"Inf","Inf","-Inf","0","-Inf","0","0","1","-Inf","0","0","1",NA,NA,NA,NA,"0"
"60","Baharoglu_MMC","het_div_fon","NA",NA,NA,NA,NA,NA,NA,NA,NA,NA,NA,NA,NA,NA,NA,NA,NA,NA,NA,NA,NA,NA,NA,NA,NA,NA,NA,NA,NA,NA,NA,NA,NA,NA,NA,NA,NA,"Inf","Inf","-Inf","0","-Inf","0","0","1","-Inf","0","0","1",NA,NA,NA,NA,"0"
"61","Baharoglu_Neo","no_SIM_wo_fitm","success","2.49068266702965e-08","1.38141086107253e-08","3.74589191399857e-08","1","1","1","2.49068266702965e-08","1.38141086107253e-08","3.74589191399857e-08","1","1","1","1","1","1","1","1","1","2.49068266702965e-08","1.38141086107253e-08","3.74589191399857e-08","0","0","0",NA,NA,NA,NA,NA,NA,NA,NA,NA,NA,NA,NA,"52.0013530588948","51.6107909713289","-25.0006765294474","0.3915","-14.6864869693904","0.4574","1001","0.0106736264425155","-10.314189560057","0.2775","1001","0.0084692962598284",NA,NA,NA,NA,"0.168446779251099"
"62","Baharoglu_Neo","no_SIM_fitm","success","2.28221087338979e-08","7.74641850737726e-09","4.62188935054696e-08","1.06734921657241","0.672793814779728","1.94919112532598","2.28221087338979e-08","7.74641850737726e-09","4.62188935054696e-08","1.06734921657241","0.672793814779728","1.94919112532598","1","1","1","1","1","1",NA,NA,NA,NA,NA,NA,NA,NA,NA,NA,NA,NA,NA,NA,NA,NA,NA,NA,"53.9329132070974","53.1517890319656","-24.9664566035487","0.4675","-14.6225513278334","0.5377","1001","0.0156171096270677","-10.3439052757153","0.3058","1001","0.0123930397842442",NA,NA,NA,NA,"0.268882989883423"
"63","Baharoglu_Neo","no_SIM_fitm_unconstr","success","2.51336143448684e-08","8.78331615829154e-09","5.12623497705147e-08","0.893673064120733","0.510271568278107","1.75375495041258","2.51336143448684e-08","8.78331615829154e-09","5.12623497705147e-08","1.21633106202975","0.716156918493407","2.48266281959049","1.36104702140315","0.693558163153643","2.7780436932304","1","1","1",NA,NA,NA,NA,NA,NA,NA,NA,NA,NA,NA,NA,NA,NA,NA,NA,NA,NA,"54.9007086613735","53.7290223986758","-24.4503543306868","0.4904","-14.5458580107511","0.3233","1001","0.00443843911127684","-9.9044963199357","0.5796","1001","0.0327071087028782",NA,NA,NA,NA,"1.41744995117188"
"64","Baharoglu_Neo","hom_wo_fitm","success","1.92339367349197e-08","8.41554295120489e-09","3.25941891567763e-08","1","1","1","4.62460619206042e-08","2.08546294556071e-08","7.24902473001727e-08","1","1","1","1","1","1","2.40439919076178","1.08426214264004","5.49531529798479",NA,NA,NA,NA,NA,NA,NA,NA,NA,NA,NA,NA,NA,NA,NA,NA,NA,NA,"50.5551905094176","46.5551905094176","-23.2775952547088","0.6893","-14.30925515805","0.4177","1001","0.00810043316496423","-8.96834009665876","0.9092","1001","0.0165870548982696","-10.4489879046784","0.2018","1001","0.00645003624689933","0.264054298400879"
"65","Baharoglu_Neo","hom_fitm","success","2.45862848106753e-08","8.69537587549334e-09","4.96129486900118e-08","0.803040213020723","0.488799155931953","1.44634459576973","6.24106372130581e-08","1.86972723278289e-08","1.10237176619091e-07","0.803040213020723","0.488799155931953","1.44634459576973","1","1","1","2.53843302042769","0.760475707159733","7.17745133812484",NA,NA,NA,NA,NA,NA,NA,NA,NA,NA,NA,NA,NA,NA,NA,NA,NA,NA,"51.9007928481336","50.7291065854359","-22.9503964240668","0.4086","-14.6953120305309","0.1868","1001","0.00171190571291135","-8.25508439353596","0.9437","1001","0.00371331455494661",NA,NA,NA,NA,"0.666407108306885"
"66","Baharoglu_Neo","hom_fitm_unconstr","success","1.80492584354703e-08","4.20288449090014e-09","4.0603910699057e-08","1.05523219896159","0.595672987840607","2.47621424025359","1.83926863717315e-07","1.70904560230363e-07","2.19255130400894e-07","0.0120933514326782","0.0110862027347553","0.749700751570947","0.0114603699968394","0.00488380659318063","0.710460458189865","10.1902726017742","4.529781997614","43.7620553492591",NA,NA,NA,NA,NA,NA,NA,NA,NA,NA,NA,NA,NA,NA,NA,NA,NA,NA,"48.8438203918298","44.062696216698","-20.4219101959149","0.5962","-14.2952726055993","0.4533","1001","0.01121217012523","-6.12663759031562","0.8302","93","2.35953375165839e-05","-10.43574449624","0.1661","1001","0.00400157066494977","0.320943117141724"
"67","Baharoglu_Neo","het_zero_div","success",NA,NA,NA,NA,NA,NA,NA,NA,NA,NA,NA,NA,NA,NA,NA,NA,NA,NA,"1.68612098031643e-08","6.81164536920615e-09","2.98302013881704e-08","8.06937186249374","1.98944487584146","24.9578550092315",NA,NA,NA,NA,NA,NA,"0","0","0",NA,NA,NA,"47.4780517899355","46.6969276148037","-21.7390258949677","0.6099","-14.3839488041131","0.3375","1001","0.00705006364504435","-7.35507709640351","0.9501","1001","0.00588760224407447",NA,NA,NA,NA,"0.247162103652954"
"68","Baharoglu_Neo","het_div","failed",NA,NA,NA,NA,NA,NA,NA,NA,NA,NA,NA,NA,NA,NA,NA,NA,NA,NA,NA,NA,NA,NA,NA,NA,NA,NA,NA,NA,NA,NA,NA,NA,NA,NA,NA,NA,"Inf","Inf","-Inf","0","-Inf","0","0","1","-Inf","0","0","1",NA,NA,NA,NA,"0"
"69","Baharoglu_Neo","het_zero_div_fon","NA",NA,NA,NA,NA,NA,NA,NA,NA,NA,NA,NA,NA,NA,NA,NA,NA,NA,NA,NA,NA,NA,NA,NA,NA,NA,NA,NA,NA,NA,NA,NA,NA,NA,NA,NA,NA,"Inf","Inf","-Inf","0","-Inf","0","0","1","-Inf","0","0","1",NA,NA,NA,NA,"0"
"70","Baharoglu_Neo","het_div_fon","NA",NA,NA,NA,NA,NA,NA,NA,NA,NA,NA,NA,NA,NA,NA,NA,NA,NA,NA,NA,NA,NA,NA,NA,NA,NA,NA,NA,NA,NA,NA,NA,NA,NA,NA,NA,NA,"Inf","Inf","-Inf","0","-Inf","0","0","1","-Inf","0","0","1",NA,NA,NA,NA,"0"
"71","Baharoglu_Rif","no_SIM_wo_fitm","success","2.48670979617091e-08","1.36661412838133e-08","3.76959745487285e-08","1","1","1","2.48670979617091e-08","1.36661412838133e-08","3.76959745487285e-08","1","1","1","1","1","1","1","1","1","2.48670979617091e-08","1.36661412838133e-08","3.76959745487285e-08","0","0","0",NA,NA,NA,NA,NA,NA,NA,NA,NA,NA,NA,NA,"52.5753255841878","52.1847634966219","-25.2876627920939","0.335","-14.681410589644","0.4706","1001","0.0106552962540521","-10.6062522024499","0.2056","1001","0.00701120388201215",NA,NA,NA,NA,"0.164155006408691"
"72","Baharoglu_Rif","no_SIM_fitm","success","2.19515793958301e-08","7.4082440062758e-09","4.42450465291485e-08","1.10043671726001","0.695230239023596","2.03133639515821","2.19515793958301e-08","7.4082440062758e-09","4.42450465291485e-08","1.10043671726001","0.695230239023596","2.03133639515821","1","1","1","1","1","1",NA,NA,NA,NA,NA,NA,NA,NA,NA,NA,NA,NA,NA,NA,NA,NA,NA,NA,"54.4279171074167","53.6467929322849","-25.2139585537084","0.4284","-14.6156807250142","0.5658","1001","0.0185256397483574","-10.5982778286941","0.2469","1001","0.0121926114374233",NA,NA,NA,NA,"0.266211986541748"
"73","Baharoglu_Rif","no_SIM_fitm_unconstr","success","2.4673519051023e-08","8.62561430484981e-09","5.01325070245204e-08","0.902379723652734","0.518182156130821","1.77184274261647","2.4673519051023e-08","8.62561430484981e-09","5.01325070245204e-08","1.29595943105494","0.752183956715974","2.73775931328695","1.43615752558029","0.731418991022422","3.03393265775609","1","1","1",NA,NA,NA,NA,NA,NA,NA,NA,NA,NA,NA,NA,NA,NA,NA,NA,NA,NA,"55.1381282113863","53.9664419486886","-24.5690641056931","0.4809","-14.5164213049951","0.3377","1001","0.00471449501672294","-10.052642800698","0.5445","1001","0.038910204972661",NA,NA,NA,NA,"1.24837207794189"
"74","Baharoglu_Rif","hom_wo_fitm","success","1.92339367349197e-08","8.41554295120489e-09","3.25941891567763e-08","1","1","1","5.15505677288578e-08","2.27568092899111e-08","8.18359941260845e-08","1","1","1","1","1","1","2.68018806754555","1.18315920466742","6.12563776666093",NA,NA,NA,NA,NA,NA,NA,NA,NA,NA,NA,NA,NA,NA,NA,NA,NA,NA,"50.5529365960629","46.5529365960629","-23.2764682980314","0.6605","-14.30925515805","0.4001","1001","0.00810043316496423","-8.96721313998143","0.8545","1001","0.0153649697482415","-10.1779301742226","0.1982","1001","0.00536097575425254","0.238456249237061"
"75","Baharoglu_Rif","hom_fitm","success","2.36604198609915e-08","8.26105947990603e-09","4.75530163455367e-08","0.832047247905611","0.512704431746236","1.49461494423398","6.62041756725635e-08","1.94220409302132e-08","1.19749755770426e-07","0.832047247905611","0.512704431746236","1.49461494423398","1","1","1","2.79809809215234","0.820866284044012","8.01400544731541",NA,NA,NA,NA,NA,NA,NA,NA,NA,NA,NA,NA,NA,NA,NA,NA,NA,NA,"52.0763665119363","50.9046802492386","-23.0381832559681","0.443","-14.5936491102196","0.2201","1001","0.00225936393758286","-8.44453414574855","0.8361","1001","0.00448531662378893",NA,NA,NA,NA,"0.682632923126221"
"76","Baharoglu_Rif","hom_fitm_unconstr","success","1.80492584354703e-08","4.20288449090014e-09","4.0603910699057e-08","1.05523219896159","0.595672987840607","2.47621424025359","1.48919725341877e-07","3.9816005933249e-08","2.55814983133703e-07","0.2940137249766","0.0112592319973688","1.10250233479229","0.278624671675038","0.0106699094364715","1.04479595664085","8.25073926855745","2.20596353449086","35.4327428375226",NA,NA,NA,NA,NA,NA,NA,NA,NA,NA,NA,NA,NA,NA,NA,NA,NA,NA,"51.2799879088002","46.4988637336684","-21.6399939544001","0.4706","-14.2952726055993","0.465","1001","0.01121217012523","-7.34472134880084","0.3548","117","3.79919214154958e-06","-10.1841017682775","0.1621","1001","0.00332925029857667","0.287665843963623"
"77","Baharoglu_Rif","het_zero_div","success",NA,NA,NA,NA,NA,NA,NA,NA,NA,NA,NA,NA,NA,NA,NA,NA,NA,NA,"1.814493348248e-08","7.8485364752926e-09","3.10484863585198e-08","8.0586309800612","1.99070972209201","23.8372831457779",NA,NA,NA,NA,NA,NA,"0","0","0",NA,NA,NA,"48.2558541914149","47.4747300162831","-22.1279270957075","0.567","-14.3246283503323","0.3797","1001","0.00761648363156509","-7.80329875131492","0.681","1001","0.0052592562018986",NA,NA,NA,NA,"0.246682167053223"
"78","Baharoglu_Rif","het_div","failed",NA,NA,NA,NA,NA,NA,NA,NA,NA,NA,NA,NA,NA,NA,NA,NA,NA,NA,NA,NA,NA,NA,NA,NA,NA,NA,NA,NA,NA,NA,NA,NA,NA,NA,NA,NA,"Inf","Inf","-Inf","0","-Inf","0","0","1","-Inf","0","0","1",NA,NA,NA,NA,"0"
"79","Baharoglu_Rif","het_zero_div_fon","NA",NA,NA,NA,NA,NA,NA,NA,NA,NA,NA,NA,NA,NA,NA,NA,NA,NA,NA,NA,NA,NA,NA,NA,NA,NA,NA,NA,NA,NA,NA,NA,NA,NA,NA,NA,NA,"Inf","Inf","-Inf","0","-Inf","0","0","1","-Inf","0","0","1",NA,NA,NA,NA,"0"
"80","Baharoglu_Rif","het_div_fon","NA",NA,NA,NA,NA,NA,NA,NA,NA,NA,NA,NA,NA,NA,NA,NA,NA,NA,NA,NA,NA,NA,NA,NA,NA,NA,NA,NA,NA,NA,NA,NA,NA,NA,NA,NA,NA,"Inf","Inf","-Inf","0","-Inf","0","0","1","-Inf","0","0","1",NA,NA,NA,NA,"0"
"81","Baharoglu_Spec","no_SIM_wo_fitm","success","2.42553898341028e-08","1.33819831715282e-08","3.67094248309958e-08","1","1","1","2.42553898341028e-08","1.33819831715282e-08","3.67094248309958e-08","1","1","1","1","1","1","1","1","1","2.42553898341028e-08","1.33819831715282e-08","3.67094248309958e-08","0","0","0",NA,NA,NA,NA,NA,NA,NA,NA,NA,NA,NA,NA,"53.0646174943724","52.6740554068065","-25.5323087471862","0.308","-14.6073248032078","0.4684","1001","0.0103736217148306","-10.9249839439784","0.1883","1001","0.00739950217226903",NA,NA,NA,NA,"0.266483068466187"
"82","Baharoglu_Spec","no_SIM_fitm","success","2.11653408643182e-08","7.12877238042972e-09","4.21038262016096e-08","1.11292145521542","0.700577145058805","2.06245765559098","2.11653408643182e-08","7.12877238042972e-09","4.21038262016096e-08","1.11292145521542","0.700577145058805","2.06245765559098","1","1","1","1","1","1",NA,NA,NA,NA,NA,NA,NA,NA,NA,NA,NA,NA,NA,NA,NA,NA,NA,NA,"54.8823849579961","54.1012607828643","-25.441192478998","0.4307","-14.5589239914801","0.5784","1001","0.0192398584002301","-10.882268487518","0.2369","1001","0.0137262006419692",NA,NA,NA,NA,"0.342623949050903"
"83","Baharoglu_Spec","no_SIM_fitm_unconstr","success","2.32607430786221e-08","8.13240597038337e-09","4.6054809128615e-08","0.930292304041083","0.545359863525875","1.82915473594188","2.32607430786221e-08","8.13240597038337e-09","4.6054809128615e-08","1.31134409451373","0.752046207856479","2.76789123690052","1.40960436716224","0.716912609276044","2.97529198605333","1","1","1",NA,NA,NA,NA,NA,NA,NA,NA,NA,NA,NA,NA,NA,NA,NA,NA,NA,NA,"55.7531028364081","54.5814165737104","-24.876551418204","0.4647","-14.4362061323081","0.3721","1001","0.00566772661351034","-10.440345285896","0.4858","1001","0.0424431128092999",NA,NA,NA,NA,"1.63657999038696"
"84","Baharoglu_Spec","hom_wo_fitm","success","1.92339367349197e-08","8.41554295120489e-09","3.25941891567763e-08","1","1","1","4.44945818925595e-08","1.82537018441309e-08","7.39196563354154e-08","1","1","1","1","1","1","2.31333722813897","0.949036179940781","5.28719087414188",NA,NA,NA,NA,NA,NA,NA,NA,NA,NA,NA,NA,NA,NA,NA,NA,NA,NA,"52.2732501302997","48.2732501302997","-24.1366250651499","0.5174","-14.30925515805","0.405","1001","0.00810043316496423","-9.82736990709985","0.5279","1001","0.0142044490875288","-10.6917369429494","0.1673","1001","0.00580299408686213","0.24750804901123"
"85","Baharoglu_Spec","hom_fitm","success","1.98896483114174e-08","6.5359452841749e-09","3.97486786414592e-08","0.971569279552638","0.631298591025997","1.72769859620915","4.62258803855626e-08","1.23490241760562e-08","9.04720722764726e-08","0.971569279552638","0.631298591025997","1.72769859620915","1","1","1","2.32411753399517","0.620876949793396","7.07256232659821",NA,NA,NA,NA,NA,NA,NA,NA,NA,NA,NA,NA,NA,NA,NA,NA,NA,NA,"54.2591856001389","53.0874993374412","-24.1295928000695","0.4868","-14.328778029155","0.3808","1001","0.00674499349791358","-9.80081477091441","0.516","1001","0.011886000196629",NA,NA,NA,NA,"0.892293930053711"
"86","Baharoglu_Spec","hom_fitm_unconstr","success","1.80492584354703e-08","4.20288449090014e-09","4.0603910699057e-08","1.05523219896159","0.595672987840607","2.47621424025359","5.32178392451791e-08","8.47492260375366e-09","1.10647193168191e-07","0.867957508524834","0.46514238890832","2.34333517557892","0.822527505679754","0.350517937590064","2.22068202418853","2.94847787987764","0.469544088697781","12.6622179030624",NA,NA,NA,NA,NA,NA,NA,NA,NA,NA,NA,NA,NA,NA,NA,NA,NA,NA,"56.0953894246617","51.3142652495299","-24.0476947123309","0.4992","-14.2952726055993","0.4544","1001","0.01121217012523","-9.75242210673161","0.4126","1001","0.00554172382054419","-10.6645253552829","0.1393","1001","0.00360228461130707","0.376541614532471"
"87","Baharoglu_Spec","het_zero_div","success",NA,NA,NA,NA,NA,NA,NA,NA,NA,NA,NA,NA,NA,NA,NA,NA,NA,NA,"1.98861034329279e-08","9.4095929573636e-09","3.28553285886593e-08","4.21872019743218","0","12.7805405398932",NA,NA,NA,NA,NA,NA,"0","0","0",NA,NA,NA,"52.246522338667","51.4653981635352","-24.1232611693335","0.3771","-14.3146106229535","0.4267","1001","0.00839177971021099","-9.80865055284255","0.2802","1001","0.00616381138910582",NA,NA,NA,NA,"0.252490043640137"
"88","Baharoglu_Spec","het_div","success",NA,NA,NA,NA,NA,NA,NA,NA,NA,NA,NA,NA,NA,NA,NA,"0.00526951500121694","2.20926306578049e-15","1.81124308187957","1.92342741955084e-08","8.41404080128233e-09","3.25909433453808e-08","18.8992726396248","0","654.543100358611","9.62873770722309e-11","0","3.64004182384576e-08","0.999735190572206","0.90897943283249","1","0.00164210512363984","0","408127193.60042","0.00500603121768515","0","1.89247682904291","56.1255191175618","54.5632707672982","-24.0627595587809","0.4495","-14.3092551594987","0.3993","1001","0.00810058362451871","-9.75350439928226","0.4071","1001","0.00577356988558575",NA,NA,NA,NA,"3.5129919052124"
"89","Baharoglu_Spec","het_zero_div_fon","NA",NA,NA,NA,NA,NA,NA,NA,NA,NA,NA,NA,NA,NA,NA,NA,NA,NA,NA,NA,NA,NA,NA,NA,NA,NA,NA,NA,NA,NA,NA,NA,NA,NA,NA,NA,NA,"Inf","Inf","-Inf","0","-Inf","0","0","1","-Inf","0","0","1",NA,NA,NA,NA,"0"
"90","Baharoglu_Spec","het_div_fon","NA",NA,NA,NA,NA,NA,NA,NA,NA,NA,NA,NA,NA,NA,NA,NA,NA,NA,NA,NA,NA,NA,NA,NA,NA,NA,NA,NA,NA,NA,NA,NA,NA,NA,NA,NA,NA,"Inf","Inf","-Inf","0","-Inf","0","0","1","-Inf","0","0","1",NA,NA,NA,NA,"0"
"91","Baharoglu_Tet","no_SIM_wo_fitm","success","2.51131195617945e-08","1.38380843565789e-08","3.79539338789859e-08","1","1","1","2.51131195617945e-08","1.38380843565789e-08","3.79539338789859e-08","1","1","1","1","1","1","1","1","1","2.51131195617945e-08","1.38380843565789e-08","3.79539338789859e-08","0","0","0",NA,NA,NA,NA,NA,NA,NA,NA,NA,NA,NA,NA,"54.3917324706085","54.0011703830426","-26.1958662353043","0.3","-14.7133606031665","0.47","1001","0.0107688778596137","-11.4825056321378","0.1822","1001","0.0100558313426304",NA,NA,NA,NA,"0.165597915649414"
"92","Baharoglu_Tet","no_SIM_fitm","success","2.09118696776022e-08","6.9671606344483e-09","4.19647916110659e-08","1.1471104419401","0.740360641190567","2.08514531057497","2.09118696776022e-08","6.9671606344483e-09","4.19647916110659e-08","1.1471104419401","0.740360641190567","2.08514531057497","1","1","1","1","1","1",NA,NA,NA,NA,NA,NA,NA,NA,NA,NA,NA,NA,NA,NA,NA,NA,NA,NA,"56.0574449207897","55.2763207456579","-26.0287224603948","0.4628","-14.6335990296375","0.617","1001","0.0232572864356896","-11.3951234307574","0.2544","1001","0.0217203412118914",NA,NA,NA,NA,"0.318737983703613"
"93","Baharoglu_Tet","no_SIM_fitm_unconstr","success","2.42987683106203e-08","8.39439561224515e-09","4.92947524792326e-08","0.909583532545572","0.524001631005114","1.79450193551219","2.42987683106203e-08","8.39439561224515e-09","4.92947524792326e-08","1.30663897335323","0.798734660591335","2.56382599131579","1.4365244384938","0.72813461356356","2.81868118713697","1","1","1",NA,NA,NA,NA,NA,NA,NA,NA,NA,NA,NA,NA,NA,NA,NA,NA,NA,NA,"56.627964718866","55.4562784561683","-25.313982359433","0.4607","-14.4936218188132","0.3424","1001","0.0049503043786393","-10.8203605406198","0.5239","1001","0.0572417263956024",NA,NA,NA,NA,"2.01677584648132"
"94","Baharoglu_Tet","hom_wo_fitm","success","1.92339367349197e-08","8.41554295120489e-09","3.25941891567763e-08","1","1","1","5.11439600108156e-08","2.35201301740268e-08","7.89826633785839e-08","1","1","1","1","1","1","2.65904794820097","1.22284535392723","6.07732148803223",NA,NA,NA,NA,NA,NA,NA,NA,NA,NA,NA,NA,NA,NA,NA,NA,NA,NA,"52.1781718731999","48.1781718731999","-24.0890859366","0.6265","-14.30925515805","0.4144","1001","0.00810043316496423","-9.77983077854994","0.7696","1001","0.022114207692427","-12.1557291665135","0.1047","1001","0.00757282472614429","0.264927864074707"
"95","Baharoglu_Tet","hom_fitm","success","2.29299017837884e-08","8.06845975055577e-09","4.5288925582118e-08","0.856242706088382","0.544992370838624","1.51047569130826","6.44367637274243e-08","1.82399377038545e-08","1.17788784294374e-07","0.856242706088382","0.544992370838624","1.51047569130826","1","1","1","2.81016309337101","0.795465147467411","7.98625335188488",NA,NA,NA,NA,NA,NA,NA,NA,NA,NA,NA,NA,NA,NA,NA,NA,NA,NA,"53.8036345792187","52.631948316521","-23.9018172896093","0.4417","-14.5231269568278","0.2517","1001","0.00280566180355879","-9.37869033278151","0.7226","1001","0.00813858438533166",NA,NA,NA,NA,"0.938080072402954"
"96","Baharoglu_Tet","hom_fitm_unconstr","success","1.80492584354703e-08","4.20288449090014e-09","4.0603910699057e-08","1.05523219896159","0.595672987840607","2.47621424025359","1.01205619112253e-07","2.40187187663567e-08","2.39574814755153e-07","0.582176123506815","0.0421033239506072","1.41165017767313","0.551704282791705","0.0398995822834439","1.33776260718947","5.60718987287389","1.33073161161875","24.0800382050417",NA,NA,NA,NA,NA,NA,NA,NA,NA,NA,NA,NA,NA,NA,NA,NA,NA,NA,"54.4232253433725","49.6421011682407","-23.2116126716863","0.482","-14.2952726055993","0.4574","1001","0.01121217012523","-8.91634006608701","0.3779","1001","0.000254092853356758","-11.945797811658","0.0899","1001","0.00469334441798341","0.396488189697266"
"97","Baharoglu_Tet","het_zero_div","success",NA,NA,NA,NA,NA,NA,NA,NA,NA,NA,NA,NA,NA,NA,NA,NA,NA,NA,"1.90893714403156e-08","8.9062280639323e-09","3.18733238939248e-08","7.30337668453609","1.53439457223985","20.087923983288",NA,NA,NA,NA,NA,NA,"0","0","0",NA,NA,NA,"50.7515664062842","49.9704422311524","-23.3757832031421","0.5014","-14.3095217555574","0.4048","1001","0.00803600571651186","-9.06626145380903","0.5","1001","0.00794585451576946",NA,NA,NA,NA,"0.310113906860352"
"98","Baharoglu_Tet","het_div","failed",NA,NA,NA,NA,NA,NA,NA,NA,NA,NA,NA,NA,NA,NA,NA,NA,NA,NA,NA,NA,NA,NA,NA,NA,NA,NA,NA,NA,NA,NA,NA,NA,NA,NA,NA,NA,"Inf","Inf","-Inf","0","-Inf","0","0","1","-Inf","0","0","1",NA,NA,NA,NA,"0"
"99","Baharoglu_Tet","het_zero_div_fon","NA",NA,NA,NA,NA,NA,NA,NA,NA,NA,NA,NA,NA,NA,NA,NA,NA,NA,NA,NA,NA,NA,NA,NA,NA,NA,NA,NA,NA,NA,NA,NA,NA,NA,NA,NA,NA,"Inf","Inf","-Inf","0","-Inf","0","0","1","-Inf","0","0","1",NA,NA,NA,NA,"0"
"100","Baharoglu_Tet","het_div_fon","NA",NA,NA,NA,NA,NA,NA,NA,NA,NA,NA,NA,NA,NA,NA,NA,NA,NA,NA,NA,NA,NA,NA,NA,NA,NA,NA,NA,NA,NA,NA,NA,NA,NA,NA,NA,NA,"Inf","Inf","-Inf","0","-Inf","0","0","1","-Inf","0","0","1",NA,NA,NA,NA,"0"
"101","Baharoglu_Tob","no_SIM_wo_fitm","success","2.07375067805788e-08","1.15744100729337e-08","3.13480393645604e-08","1","1","1","2.07375067805788e-08","1.15744100729337e-08","3.13480393645604e-08","1","1","1","1","1","1","1","1","1","2.07375067805788e-08","1.15744100729337e-08","3.13480393645604e-08","0","0","0",NA,NA,NA,NA,NA,NA,NA,NA,NA,NA,NA,NA,"47.2033707319501","46.8128086443842","-22.6016853659751","0.5641","-14.3373445329896","0.4313","1001","0.00877386346917142","-8.2643408329855","0.5557","1001","0.0063409460669196",NA,NA,NA,NA,"0.158174991607666"
"102","Baharoglu_Tob","no_SIM_fitm","success","2.21789819404746e-08","8.23930161707531e-09","4.17537491238431e-08","0.943966359676154","0.584454043072643","1.73534452991527","2.21789819404746e-08","8.23930161707531e-09","4.17537491238431e-08","0.943966359676154","0.584454043072643","1.73534452991527","1","1","1","1","1","1",NA,NA,NA,NA,NA,NA,NA,NA,NA,NA,NA,NA,NA,NA,NA,NA,NA,NA,"49.1559263186254","48.3748021434936","-22.5779631593127","0.4844","-14.3869898540933","0.3682","1001","0.00604974195176333","-8.1909733052194","0.5202","1001","0.00437305459427673",NA,NA,NA,NA,"0.231127977371216"
"103","Baharoglu_Tob","no_SIM_fitm_unconstr","success","2.22491421292614e-08","8.24586731190716e-09","4.20028963146626e-08","0.951567725910156","0.571575277263102","1.82830729762471","2.22491421292614e-08","8.24586731190716e-09","4.20028963146626e-08","0.924820012796128","0.470296886518384","2.1081382049436","0.971890899212199","0.494233751011842","2.21543684967584","1","1","1",NA,NA,NA,NA,NA,NA,NA,NA,NA,NA,NA,NA,NA,NA,NA,NA,NA,NA,"51.1490403243781","49.9773540616804","-22.574520162189","0.4902","-14.3887879238687","0.3868","1001","0.00646507296184928","-8.18573223832032","0.5054","1001","0.00372895431685638",NA,NA,NA,NA,"0.996182203292847"
"104","Baharoglu_Tob","hom_wo_fitm","success","1.92339367349197e-08","8.41554295120489e-09","3.25941891567763e-08","1","1","1","2.33381617007645e-08","8.49287618245256e-09","4.18096463253443e-08","1","1","1","1","1","1","1.21338455160838","0.441556832566342","2.77322114997026",NA,NA,NA,NA,NA,NA,NA,NA,NA,NA,NA,NA,NA,NA,NA,NA,NA,NA,"49.0527571261613","45.0527571261613","-22.5263785630807","0.5863","-14.30925515805","0.4148","1001","0.00810043316496423","-8.21712340503065","0.6442","1001","0.00717763390398751","-8.26962813703656","0.5152","1001","0.00586157730362846","0.250726938247681"
"105","Baharoglu_Tob","hom_fitm","success","2.06499681989222e-08","6.65104605867157e-09","4.21395357275736e-08","0.940285180048418","0.584859289506735","1.72365939133203","2.50225816035468e-08","6.80389018630204e-09","5.06272487000783e-08","0.940285180048418","0.584859289506735","1.72365939133203","1","1","1","1.21174915924824","0.329486714979889","3.76220242392136",NA,NA,NA,NA,NA,NA,NA,NA,NA,NA,NA,NA,NA,NA,NA,NA,NA,NA,"50.9980133793754","49.8263271166777","-22.4990066896877","0.5086","-14.3616782145476","0.354","1001","0.00543803261743925","-8.13732847514011","0.5997","1001","0.00481211062132358",NA,NA,NA,NA,"0.536647081375122"
"106","Baharoglu_Tob","hom_fitm_unconstr","success","1.80492584354703e-08","4.20288449090014e-09","4.0603910699057e-08","1.05523219896159","0.595672987840607","2.47621424025359","3.31156371878272e-08","5.9493216049879e-09","8.08605665826164e-08","0.717978088448624","0.192500921533402","2.22290152846925","0.680398199709182","0.182425177816631","2.10655202774965","1.83473671819937","0.32961584689243","7.87926417191035",NA,NA,NA,NA,NA,NA,NA,NA,NA,NA,NA,NA,NA,NA,NA,NA,NA,NA,"52.5320474348225","47.7509232596907","-22.2660237174113","0.491","-14.2952726055993","0.4607","1001","0.01121217012523","-7.97075111181201","0.3949","1001","0.000580442739379405","-8.34551114405328","0.4137","1001","0.00363845508272198","0.3199462890625"
"107","Baharoglu_Tob","het_zero_div","success",NA,NA,NA,NA,NA,NA,NA,NA,NA,NA,NA,NA,NA,NA,NA,NA,NA,NA,"1.85467020052315e-08","8.56130627835012e-09","3.07230834782018e-08","1.07747865066349","0","6.23356856258141",NA,NA,NA,NA,NA,NA,"0","0","0",NA,NA,NA,"48.7855690392984","48.0044448641666","-22.3927845196492","0.527","-14.3153351265552","0.3868","1001","0.00779465847938421","-8.07744939915515","0.5671","1001","0.00567789280748532",NA,NA,NA,NA,"0.215975046157837"
"108","Baharoglu_Tob","het_div","success",NA,NA,NA,NA,NA,NA,NA,NA,NA,NA,NA,NA,NA,NA,NA,"0.931070618941279","1.16403722768265e-16","106.778016666532","2.06670254112819e-08","1.20149380125503e-08","3.26501506790467e-08","0.0484715249673934","0","120.241910430656","7.94466941309977e-09","0","Inf","0.111973385285562","0","1","0.0258813966563682","0","943283.3793374","0.384412814858343","0","Inf","52.7234211527801","51.1611728025165","-22.3617105763901","0.5921","-14.3348004439594","0.4215","1001","0.00874215890427388","-8.02691013243069","0.6199","1001","0.00629887928654971",NA,NA,NA,NA,"1.06245708465576"
"109","Baharoglu_Tob","het_zero_div_fon","NA",NA,NA,NA,NA,NA,NA,NA,NA,NA,NA,NA,NA,NA,NA,NA,NA,NA,NA,NA,NA,NA,NA,NA,NA,NA,NA,NA,NA,NA,NA,NA,NA,NA,NA,NA,NA,"Inf","Inf","-Inf","0","-Inf","0","0","1","-Inf","0","0","1",NA,NA,NA,NA,"0"
"110","Baharoglu_Tob","het_div_fon","NA",NA,NA,NA,NA,NA,NA,NA,NA,NA,NA,NA,NA,NA,NA,NA,NA,NA,NA,NA,NA,NA,NA,NA,NA,NA,NA,NA,NA,NA,NA,NA,NA,NA,NA,NA,NA,"Inf","Inf","-Inf","0","-Inf","0","0","1","-Inf","0","0","1",NA,NA,NA,NA,"0"
"111","Baharoglu_Trim","no_SIM_wo_fitm","success","2.32200787168524e-08","1.21476958256195e-08","3.65358385339709e-08","1","1","1","2.32200787168524e-08","1.21476958256195e-08","3.65358385339709e-08","1","1","1","1","1","1","1","1","1","2.32200787168524e-08","1.21476958256195e-08","3.65358385339709e-08","0","0","0",NA,NA,NA,NA,NA,NA,NA,NA,NA,NA,NA,NA,"55.140539808012","54.7499777204461","-26.570269904006","0.0111","-14.4997082048554","0.4714","1001","0.00989926677120057","-12.0705616991506","0.00429999999999997","1001","0.000195447949562166",NA,NA,NA,NA,"0.253044128417969"
"112","Baharoglu_Trim","no_SIM_fitm","success","2.09238800089704e-08","7.4962561865869e-09","4.15488201252216e-08","1.10099872761876","0.668236600373477","2.11279839529459","2.09238800089704e-08","7.4962561865869e-09","4.15488201252216e-08","1.10099872761876","0.668236600373477","2.11279839529459","1","1","1","1","1","1",NA,NA,NA,NA,NA,NA,NA,NA,NA,NA,NA,NA,NA,NA,NA,NA,NA,NA,"57.0157134587518","56.23458928362","-26.5078567293759","0.0163","-14.5006658032075","0.5746","1001","0.0176575707896486","-12.0071909261684","0.00460000000000005","1001","0.000348224854387902",NA,NA,NA,NA,"0.250088930130005"
"113","Baharoglu_Trim","no_SIM_fitm_unconstr","success","2.56359217381035e-08","1.00072223712313e-08","5.02707309717477e-08","0.884427661710983","0.51542660187844","1.66344761865802","2.56359217381035e-08","1.00072223712313e-08","5.02707309717477e-08","2.62015872972157","0.843005144250119","14.8465502682887","2.96254724174128","0.953164606610416","16.7866190882893","1","1","1",NA,NA,NA,NA,NA,NA,NA,NA,NA,NA,NA,NA,NA,NA,NA,NA,NA,NA,"56.200358864051","55.0286726013533","-25.1001794320255","0.0653","-14.5797643504772","0.306","1001","0.00415694149999779","-10.5204150815483","0.0604","1001","0.0239892631408765",NA,NA,NA,NA,"0.719348907470703"
"114","Baharoglu_Trim","hom_wo_fitm","success","1.92339367349197e-08","8.41554295120489e-09","3.25941891567763e-08","1","1","1","4.0620302428746e-07","1.31923259823707e-07","7.90681065607435e-07","1","1","1","1","1","1","21.1190787349314","6.85887978326332","48.2681897820155",NA,NA,NA,NA,NA,NA,NA,NA,NA,NA,NA,NA,NA,NA,NA,NA,NA,NA,"44.8853831696461","40.8853831696461","-20.442691584823","0.6772","-14.30925515805","0.4113","1001","0.00810043316496423","-6.13343642677301","0.8491","1001","0.00350223374403869","-9.19653614345166","0.015","1001","0.000161855639318254","0.229859828948975"
"115","Baharoglu_Trim","hom_fitm","success","2.23418637978316e-08","7.23334947226465e-09","4.63704662362745e-08","0.876640490382943","0.522458962552134","1.64743485057263","4.53800568511551e-07","1.2833029778148e-07","9.16686823631691e-07","0.876640490382943","0.522458962552134","1.64743485057263","1","1","1","20.3116701729958","5.7439387753288","62.7372658063309",NA,NA,NA,NA,NA,NA,NA,NA,NA,NA,NA,NA,NA,NA,NA,NA,NA,NA,"46.6686740469502","45.4969877842525","-20.3343370234751","0.526","-14.4727717968505","0.2715","1001","0.00333527199538519","-5.86156522662461","0.8812","1001","0.00138704683135449",NA,NA,NA,NA,"0.473972082138062"
"116","Baharoglu_Trim","hom_fitm_unconstr","failed",NA,NA,NA,NA,NA,NA,NA,NA,NA,NA,NA,NA,NA,NA,NA,NA,NA,NA,NA,NA,NA,NA,NA,NA,NA,NA,NA,NA,NA,NA,NA,NA,NA,NA,NA,NA,"Inf","Inf","-Inf","0","-Inf","0","0","1","-Inf","0","0","1",NA,NA,NA,NA,"0"
"117","Baharoglu_Trim","het_zero_div","success",NA,NA,NA,NA,NA,NA,NA,NA,NA,NA,NA,NA,NA,NA,NA,NA,NA,NA,"1.90407732565915e-08","8.28941044478738e-09","3.23500093871057e-08","57.601779931149","26.3320883489781","147.073896145472",NA,NA,NA,NA,NA,NA,"0","0","0",NA,NA,NA,"41.0719373617363","40.2908131866045","-18.5359686808681","0.5957","-14.3097315064985","0.4124","1001","0.00801435990528454","-4.22623718057937","0.9528","1001","0.000161722093536931",NA,NA,NA,NA,"0.200806856155396"
"118","Baharoglu_Trim","het_div","failed",NA,NA,NA,NA,NA,NA,NA,NA,NA,NA,NA,NA,NA,NA,NA,NA,NA,NA,NA,NA,NA,NA,NA,NA,NA,NA,NA,NA,NA,NA,NA,NA,NA,NA,NA,NA,"Inf","Inf","-Inf","0","-Inf","0","0","1","-Inf","0","0","1",NA,NA,NA,NA,"0"
"119","Baharoglu_Trim","het_zero_div_fon","success",NA,NA,NA,NA,NA,NA,NA,NA,NA,NA,NA,NA,NA,NA,NA,"17.5805339793447","8.19962650469343","44.4221688436415","1.90407732565915e-08","8.28941044478738e-09","3.23500093871057e-08","57.601779931149","26.3320883489781","147.073896145472","4.70049613219326e-07","2.04636341228404e-07","1.20017173220118e-06","0.7","0.7","0.7","0","0","0","24.6864771133496","11.2851807209906","63.0316697766308","41.0719373617363","40.2908131866045","-18.5359686808681","0.5826","-14.3097315064985","0.4036","1001","0.00801435990528454","-4.22623718057937","0.9575","1001","0.000161722093536931",NA,NA,NA,NA,"0.199965953826904"
"120","Baharoglu_Trim","het_div_fon","failed",NA,NA,NA,NA,NA,NA,NA,NA,NA,NA,NA,NA,NA,NA,NA,NA,NA,NA,NA,NA,NA,NA,NA,NA,NA,NA,NA,NA,NA,NA,NA,NA,NA,NA,NA,NA,"Inf","Inf","-Inf","0","-Inf","0","0","1","-Inf","0","0","1",NA,NA,NA,NA,"0"
"121","Bulssico_Cip_1","no_SIM_wo_fitm","success","2.25370299558183e-08","2.01650755048373e-08","2.50242628758989e-08","1","1","1","2.25370299558183e-08","2.01650755048373e-08","2.50242628758989e-08","1","1","1","1","1","1","1","1","1","2.25370299558183e-08","2.01650755048373e-08","2.50242628758989e-08","0","0","0",NA,NA,NA,NA,NA,NA,NA,NA,NA,NA,NA,NA,"1644.2388959401","1647.33876236792","-821.119447970048","0","-398.883801398343","0.7035","1001","0.00921231588339277","-422.235646571704","0","1001","0.00110774368730893",NA,NA,NA,NA,"0.330984115600586"
"122","Bulssico_Cip_1","no_SIM_fitm","success","2.09016079521461e-08","1.81411105565857e-08","2.38311807794627e-08","1.13168888086183","1.00094552855978","1.2858672528975","2.09016079521461e-08","1.81411105565857e-08","2.38311807794627e-08","1.13168888086183","1.00094552855978","1.2858672528975","1","1","1","1","1","1",NA,NA,NA,NA,NA,NA,NA,NA,NA,NA,NA,NA,NA,NA,NA,NA,NA,NA,"1642.33698039291","1648.53671324856","-819.168490196457","0","-399.544694433551","0.9737","1001","0.0182646091299399","-419.623795762906","0","1001","0.00219517025306182",NA,NA,NA,NA,"2.9817099571228"
"123","Bulssico_Cip_1","no_SIM_fitm_unconstr","success","2.36860202625398e-08","2.07332426976712e-08","2.67921377959901e-08","0.797141884861405","0.688248607379354","0.926427010282868","2.36860202625398e-08","2.07332426976712e-08","2.67921377959901e-08","1.83941097025018","1.51460171702109","2.2614983821926","2.30750761587442","1.90004031375722","2.83700859927313","1","1","1",NA,NA,NA,NA,NA,NA,NA,NA,NA,NA,NA,NA,NA,NA,NA,NA,NA,NA,"1592.02491233782","1601.32451162129","-793.01245616891","0","-397.092928704626","0.00870000000000004","1001","0.00187894890692464","-395.919527464284","0","1001","0.0240913110879628",NA,NA,NA,NA,"22.762698173523"
"124","Bulssico_Cip_1","hom_wo_fitm","success","1.6041321485861e-08","1.37797098916259e-08","1.84389124947829e-08","1","1","1","1.068864103342e-07","9.13582089200392e-08","1.23464333236167e-07","1","1","1","1","1","1","6.66319233290171","5.69517972696722","7.75679685384064",NA,NA,NA,NA,NA,NA,NA,NA,NA,NA,NA,NA,NA,NA,NA,NA,NA,NA,"1427.58987617032","1423.58987617032","-711.79493808516","0.7132","-385.922380823771","0.2576","1001","0.00644859196127634","-325.87255726139","0.9344","1001","0.00539734566135575","-328.633235118754","0","1001","0.000786842519019837","0.382209062576294"
"125","Bulssico_Cip_1","hom_fitm","success","1.68034602643099e-08","1.41079618618657e-08","1.96796235242778e-08","0.93649382156865","0.82904160365152","1.06226326294158","1.11338822297194e-07","9.3562797930624e-08","1.30394673737456e-07","0.93649382156865","0.82904160365152","1.06226326294158","1","1","1","6.62594611740028","5.56806731821475","7.89191404026588",NA,NA,NA,NA,NA,NA,NA,NA,NA,NA,NA,NA,NA,NA,NA,NA,NA,NA,"1428.52989518218","1437.82949446565","-711.264947591088","0.3957","-386.394401468419","0.0973","1001","0.00435529257951583","-324.870546122669","0.8385","1001","0.00362452242868239",NA,NA,NA,NA,"11.2384340763092"
"126","Bulssico_Cip_1","hom_fitm_unconstr","success","1.58012571544379e-08","1.28827554285741e-08","1.89384919308503e-08","1.0211531940165","0.863616250386327","1.21870732387493","1.18387267102749e-07","9.81171859079873e-08","1.40029730373041e-07","0.845523954610927","0.708505716620073","1.01608672177091","0.828008921252283","0.693787538686934","0.995038479754773","7.49226887111949","6.20945440916581","9.18959206818171",NA,NA,NA,NA,NA,NA,NA,NA,NA,NA,NA,NA,NA,NA,NA,NA,NA,NA,"1428.31604013953","1430.51577299518","-710.158020069765","0.397","-385.89366826542","0.3208","1001","0.00726721282670351","-324.264351804346","0.5244","1001","0.00184340965526564","-328.949787999911","0","1001","0.000675690360448122","2.63289666175842"
"127","Bulssico_Cip_1","het_zero_div","success",NA,NA,NA,NA,NA,NA,NA,NA,NA,NA,NA,NA,NA,NA,NA,NA,NA,NA,"1.83402402944315e-08","1.60465951483897e-08","2.07594946361853e-08","9.21362547805871","7.34958407220617","11.4175000196714",NA,NA,NA,NA,NA,NA,"0","0","0",NA,NA,NA,"1487.982928958","1494.18266181365","-741.991464479002","0","-387.692166941672","0.5308","1001","0.00741629952848932","-354.29929753733","0","1001","0.000907793432603832",NA,NA,NA,NA,"2.77825403213501"
"128","Bulssico_Cip_1","het_div","success",NA,NA,NA,NA,NA,NA,NA,NA,NA,NA,NA,NA,NA,NA,NA,"0.000344648252498476","5.19760661137666e-15","0.0444462444423146","1.60405686335953e-08","1.37792054056584e-08","1.8438309481626e-08","45.8158783964287","24.3935600496304","6037.430800548","5.41030662186256e-12","8.15917047177064e-23","7.12948283051754e-10","0.99999263821882","0.999982759413972","1","3.93404464205488e-05","0","249940.648953707","0.000337288954366071","5.08658430891414e-15","0.0444465716482492","1428.38556734636","1440.78503305766","-710.192783673182","0.3376","-385.922381024311","0.2435","1001","0.006448276900057","-324.270402648871","0.5296","1001","0.00188076870825715",NA,NA,NA,NA,"42.1052839756012"
"129","Bulssico_Cip_1","het_zero_div_fon","success",NA,NA,NA,NA,NA,NA,NA,NA,NA,NA,NA,NA,NA,NA,NA,"3.67690517210113","3.00585026599422","4.47030000708169","1.83402402944315e-08","1.60465951483897e-08","2.07594946361853e-08","9.21362547805871","7.34958407220617","11.4175000196714","9.50513092034021e-08","7.58211400959678e-08","1.17787327831377e-07","0.64","0.64","0.64","0","0","0","5.18266433140802","4.13414104061597","6.42234376106514","1487.982928958","1494.18266181365","-741.991464479002","0","-387.692166941672","0.5249","1001","0.00741629952848932","-354.29929753733","0","1001","0.000907793432603832",NA,NA,NA,NA,"2.80770206451416"
"130","Bulssico_Cip_1","het_div_fon","success",NA,NA,NA,NA,NA,NA,NA,NA,NA,NA,NA,NA,NA,NA,NA,"0.387038674476839","0.36","243.268276705702","2.25948195536444e-08","2.93990065897225e-09","3.74045000856613e-08","0.0751074291023308","0","674.745213071395","9.54584329334234e-10","0","8.57573231289386e-06","0.64","0.64","0.64","3.47230123706747e-11","0","1.77322758602489e+89","0.0422479288700611","0","379.54418235266","1645.75021558178","1655.04981486525","-819.87510779089","0","-399.101024570745","0.7052","1001","0.00923731569867448","-420.774083220145","0","1001","0.00111069718064882",NA,NA,NA,NA,"63.5454788208008"
"131","Bulssico_Cip_2","no_SIM_wo_fitm","success","2.00167738594629e-08","1.79297944227783e-08","2.22010504422048e-08","1","1","1","2.00167738594629e-08","1.79297944227783e-08","2.22010504422048e-08","1","1","1","1","1","1","1","1","1","2.00167738594629e-08","1.79297944227783e-08","2.22010504422048e-08","0","0","0",NA,NA,NA,NA,NA,NA,NA,NA,NA,NA,NA,NA,"1462.59570196834","1465.67087578357","-730.29785098417","0.000800000000000023","-373.513409356763","0.7802","1001","0.00880959305625273","-356.784441627408","0","1001","0.0027898830201174",NA,NA,NA,NA,"0.189573049545288"
"132","Bulssico_Cip_2","no_SIM_fitm","success","1.98972859979827e-08","1.72934222143719e-08","2.26459958540445e-08","1.0092194561605","0.892524673343032","1.14622023225042","1.98972859979827e-08","1.72934222143719e-08","2.26459958540445e-08","1.0092194561605","0.892524673343032","1.14622023225042","1","1","1","1","1","1",NA,NA,NA,NA,NA,NA,NA,NA,NA,NA,NA,NA,NA,NA,NA,NA,NA,NA,"1464.57490642514","1470.72525405561","-730.287453212572","0.00170000000000003","-373.472858234365","0.8092","1001","0.00929266185809929","-356.814594978208","0","1001","0.00294268115969953",NA,NA,NA,NA,"1.46031904220581"
"133","Bulssico_Cip_2","no_SIM_fitm_unconstr","success","2.06194335759742e-08","1.79762388543064e-08","2.34017469605542e-08","0.826493721759259","0.711057726569781","0.964020746510611","2.06194335759742e-08","1.79762388543064e-08","2.34017469605542e-08","1.2866822212726","1.08327313504408","1.5419552920569","1.5567961224603","1.31068525570678","1.86565880836302","1","1","1",NA,NA,NA,NA,NA,NA,NA,NA,NA,NA,NA,NA,NA,NA,NA,NA,NA,NA,"1448.73409872403","1457.95962016973","-721.367049362013","0.0173","-371.450532934401","0.0494","1001","0.00233906468313028","-349.916516427612","0.0777","1001","0.0124334962113151",NA,NA,NA,NA,"10.7572641372681"
"134","Bulssico_Cip_2","hom_wo_fitm","success","1.48889504097491e-08","1.27605295724586e-08","1.71498414789471e-08","1","1","1","4.02078170787308e-08","3.44384503850666e-08","4.6342606987648e-08","1","1","1","1","1","1","2.70051386915784","2.31302069234623","3.15095207063448",NA,NA,NA,NA,NA,NA,NA,NA,NA,NA,NA,NA,NA,NA,NA,NA,NA,NA,"1388.09182263656","1384.09182263656","-692.045911318279","0.8242","-364.261734679556","0.3383","1001","0.00646033332048968","-327.784176638724","0.9609","1001","0.00570686051471847","-329.123779525942","0.000199999999999978","1001","0.00206568242754124","0.294306755065918"
"135","Bulssico_Cip_2","hom_fitm","success","1.58768330889631e-08","1.33446679248798e-08","1.85792742808947e-08","0.909486351157352","0.803793988594964","1.03310661596322","4.28289812103919e-08","3.60062971758798e-08","5.01044945963564e-08","0.909486351157352","0.803793988594964","1.03310661596322","1","1","1","2.6975770904945","2.26785133874776","3.2094452594464",NA,NA,NA,NA,NA,NA,NA,NA,NA,NA,NA,NA,NA,NA,NA,NA,NA,NA,"1387.94372724859","1397.16924869429","-690.971863624296","0.3998","-364.939774665451","0.0948","1001","0.00362056184316162","-326.032088958845","0.8454","1001","0.00319502526302895",NA,NA,NA,NA,"5.47445797920227"
"136","Bulssico_Cip_2","hom_fitm_unconstr","success","1.48257859266582e-08","1.21168774713063e-08","1.77374798108358e-08","1.00616998344357","0.850343193452695","1.20101820103834","4.63768832622153e-08","3.83866304055892e-08","5.48491084577744e-08","0.802482871639063","0.66943695630768","0.968180090911681","0.797561927749627","0.665331869687231","0.962243067118869","3.12812308849174","2.5891801349004","3.8274616023839",NA,NA,NA,NA,NA,NA,NA,NA,NA,NA,NA,NA,NA,NA,NA,NA,NA,NA,"1386.8495177095","1388.99986533996","-689.424758854749","0.3835","-364.259276847615","0.3657","1001","0.00669427864163319","-325.165482007134","0.4504","1001","0.00135563791184123","-329.260119530392","0","1001","0.00197600657402086","1.36124706268311"
"137","Bulssico_Cip_2","het_zero_div","success",NA,NA,NA,NA,NA,NA,NA,NA,NA,NA,NA,NA,NA,NA,NA,NA,NA,NA,"1.64426437691911e-08","1.43591157729238e-08","1.86466801940973e-08","2.96291857463644","2.13472721554735","3.92678618641139",NA,NA,NA,NA,NA,NA,"0","0","0",NA,NA,NA,"1404.9293434643","1411.07969109477","-700.464671732151","0.0155999999999999","-365.184888913395","0.5619","1001","0.00716518211513606","-335.279782818756","0.00139999999999996","1001","0.00229995830481222",NA,NA,NA,NA,"1.70623207092285"
"138","Bulssico_Cip_2","het_div","success",NA,NA,NA,NA,NA,NA,NA,NA,NA,NA,NA,NA,NA,NA,NA,"6.19447278639393e-06","7.2526354525866e-07","3.78241220568782e-05","1.48829049288367e-08","1.27572333832067e-08","1.71457407730424e-08","13.7762219322707","7.55183033740725","90.2252122462042","8.5952589273007e-14","1.00635290034037e-14","5.62933048581456e-13","0.999999580781013","0.999999022197584","0.999999950916848","1.56939588025228e-06","0","0.952171881495657","5.77525622074409e-06","6.76180426571487e-07","3.7824137913475e-05","1386.9306218674","1399.23131712834","-689.465310933702","0.3838","-364.261749242613","0.3483","1001","0.00645760241684856","-325.203561691089","0.4785","1001","0.00154840677894086",NA,NA,NA,NA,"15.6107349395752"
"139","Bulssico_Cip_2","het_zero_div_fon","success",NA,NA,NA,NA,NA,NA,NA,NA,NA,NA,NA,NA,NA,NA,NA,"1.42665068686912","1.12850179759704","1.7736430271081","1.64426437691911e-08","1.43591157729238e-08","1.86466801940973e-08","2.96291857463644","2.13472721554735","3.92678618641139","2.74039957349249e-08","1.97440645216738e-08","3.63187948617804e-08","0.64","0.64","0.64","0","0","0","1.666641698233","1.20078405874538","2.20881722985641","1404.9293434643","1411.07969109477","-700.464671732151","0.0159","-365.184888913395","0.5597","1001","0.00716518211513606","-335.279782818756","0.00149999999999995","1001","0.00229995830481222",NA,NA,NA,NA,"1.70914483070374"
"140","Bulssico_Cip_2","het_div_fon","success",NA,NA,NA,NA,NA,NA,NA,NA,NA,NA,NA,NA,NA,NA,NA,"2.20129107748914","1.72882164151817","2.84598525454181","1.48779810773276e-08","1.27509768033451e-08","1.71374226157223e-08","5.11469743746983","3.80228233755047","6.90551459594947","4.28042090761492e-08","3.18207851261621e-08","5.77913149618568e-08","0.64","0.64","0.64","0.540970333838939","0","0.9175048215801","2.87701730857678","2.13878381487214","3.88435196022157","1385.05945945141","1394.28498089711","-689.529729725706","0.3977","-364.261782631902","0.3444","1001","0.0064553782496185","-325.267947093804","0.5077","1001","0.00184805680095346",NA,NA,NA,NA,"6.66046786308289"
"141","Bulssico_Cip_3","no_SIM_wo_fitm","success","1.61583415050986e-08","1.42403882295796e-08","1.81965302854027e-08","1","1","1","1.61583415050986e-08","1.42403882295796e-08","1.81965302854027e-08","1","1","1","1","1","1","1","1","1","1.61583415050986e-08","1.42403882295796e-08","1.81965302854027e-08","0","0","0",NA,NA,NA,NA,NA,NA,NA,NA,NA,NA,NA,NA,"1371.21759342688","1374.24147394772","-684.608796713439","0","-309.12673108048","0.9551","1001","0.00693592449721403","-375.482065632959","0","1001","0.000485879866500283",NA,NA,NA,NA,"0.135645151138306"
"142","Bulssico_Cip_3","no_SIM_fitm","success","1.57714160324707e-08","1.3645071337476e-08","1.80469113429393e-08","1.05519922597981","0.91760609551353","1.21925578862074","1.57714160324707e-08","1.3645071337476e-08","1.80469113429393e-08","1.05519922597981","0.91760609551353","1.21925578862074","1","1","1","1","1","1",NA,NA,NA,NA,NA,NA,NA,NA,NA,NA,NA,NA,NA,NA,NA,NA,NA,NA,"1372.66024684057","1378.70800788227","-684.330123420287","0","-309.700322623819","0.9882","1001","0.00952075080121417","-374.629800796468","0","1001","0.000666437228151295",NA,NA,NA,NA,"1.71188712120056"
"143","Bulssico_Cip_3","no_SIM_fitm_unconstr","success","1.7668116432514e-08","1.53858482510277e-08","2.00911509693272e-08","0.731775325209664","0.614767048273152","0.873738337373325","1.7668116432514e-08","1.53858482510277e-08","2.00911509693272e-08","1.7518676543595","1.39708824976263","2.22592318995353","2.39399661891792","1.90917649397695","3.04181230668822","1","1","1",NA,NA,NA,NA,NA,NA,NA,NA,NA,NA,NA,NA,NA,NA,NA,NA,NA,NA,"1336.19759939168","1345.26924095422","-665.098799695842","0","-308.70357230619","0.0312","1001","0.000726829037101417","-356.395227389652","0","1001","0.00916462572731536",NA,NA,NA,NA,"13.6914088726044"
"144","Bulssico_Cip_3","hom_wo_fitm","success","1.11358868805519e-08","9.34859618061732e-09","1.30641061012502e-08","1","1","1","9.03559072034828e-08","7.43109082206003e-08","1.08109356673498e-07","1","1","1","1","1","1","8.11393903087176","6.67310192871836","9.70819458145755",NA,NA,NA,NA,NA,NA,NA,NA,NA,NA,NA,NA,NA,NA,NA,NA,NA,NA,"1183.05015717015","1179.05015717015","-589.525078585073","0.4503","-297.350615407836","0.5789","1001","0.00471526393466071","-292.174463177237","0.3521","1001","0.00275665538927761","-311.609955722861","0","1001","0.000334528207679652","0.236467123031616"
"145","Bulssico_Cip_3","hom_fitm","success","1.1187010864153e-08","9.18506065278556e-09","1.33642099865269e-08","0.992247128052457","0.860621574782429","1.14973050357884","9.06436684802302e-08","7.38370993493018e-08","1.09354018824604e-07","0.992247128052457","0.860621574782429","1.14973050357884","1","1","1","8.10258160834399","6.60025276152196","9.86859770520303",NA,NA,NA,NA,NA,NA,NA,NA,NA,NA,NA,NA,NA,NA,NA,NA,NA,NA,"1185.03903259488","1194.11067415742","-589.519516297438","0.4273","-297.310814761368","0.5658","1001","0.00450263931694117","-292.20870153607","0.3376","1001","0.00262867052176785",NA,NA,NA,NA,"7.13306903839111"
"146","Bulssico_Cip_3","hom_fitm_unconstr","success","1.15130034890362e-08","9.3090084415919e-09","1.39060831598403e-08","0.944533333101602","0.778245789542961","1.15742049361808","8.86459186663223e-08","7.12821300496108e-08","1.0809803809159e-07","1.04743859908313","0.851881016236149","1.30093948691383","1.10894826299419","0.901906779127416","1.37733570782715","7.69963448293398","6.19144518782546","9.5225951531271",NA,NA,NA,NA,NA,NA,NA,NA,NA,NA,NA,NA,NA,NA,NA,NA,NA,NA,"1186.54823684469","1188.59599788638","-589.274118422343","0.4223","-297.193106057798","0.4066","1001","0.00333273207211038","-292.081012364545","0.4659","1001","0.00363152587520044","-313.24397594423","0","1001","0.000496179103394834","1.86929392814636"
"147","Bulssico_Cip_3","het_zero_div","success",NA,NA,NA,NA,NA,NA,NA,NA,NA,NA,NA,NA,NA,NA,NA,NA,NA,NA,"1.32430391217026e-08","1.13937864958149e-08","1.52222392789094e-08","7.67281724231673","5.64092712076269","10.1816739360881",NA,NA,NA,NA,NA,NA,"0","0","0",NA,NA,NA,"1260.30302038039","1266.35078142209","-628.151510190197","0","-299.629811104401","0.8808","1001","0.00563962039499943","-328.521699085796","0","1001","0.000399211071601346",NA,NA,NA,NA,"1.94639897346497"
"148","Bulssico_Cip_3","het_div","success",NA,NA,NA,NA,NA,NA,NA,NA,NA,NA,NA,NA,NA,NA,NA,"41.2970413832717","8.25336578896867e-14","11580.52470637","1.1135777145165e-08","9.34859490925802e-09","1.30641045146687e-08","742.397101835034","101.917810848863","208463.56581689","4.86269160623417e-07","9.17840101616474e-22","0.000136543371357164","0.944448207719223","0.714729681179628","1","5.43414815516547","0","15436641.2839871","43.6672855683492","8.24226355872242e-14","12261.683183598","1186.86329063902","1198.95881272241","-589.431645319512","0.5538","-297.350615414536","0.597","1001","0.00471521606884184","-292.081029904976","0.4708","1001","0.0036311611367974",NA,NA,NA,NA,"24.5736968517303"
"149","Bulssico_Cip_3","het_zero_div_fon","success",NA,NA,NA,NA,NA,NA,NA,NA,NA,NA,NA,NA,NA,NA,NA,"3.12221420723402","2.39073376347457","4.02540261699171","1.32430391217026e-08","1.13937864958149e-08","1.52222392789094e-08","7.67281724231673","5.64092712076269","10.1816739360881","5.71564231389419e-08","4.20204479304e-08","7.58454222712691e-08","0.64","0.64","0.64","0","0","0","4.31595969880316","3.17302150542901","5.72719158904955","1260.30302038039","1266.35078142209","-628.151510190197","0","-299.629811104401","0.881","1001","0.00563962039499943","-328.521699085796","0","1001","0.000399211071601346",NA,NA,NA,NA,"1.9208710193634"
"150","Bulssico_Cip_3","het_div_fon","success",NA,NA,NA,NA,NA,NA,NA,NA,NA,NA,NA,NA,NA,NA,NA,"8.72378982533041","5.99199640680575","16.4793907173285","1.11358139927089e-08","9.34855512614706e-09","1.30640539373859e-08","23.2327495148067","15.6444344633493","44.7760853259126","1.45527512139049e-07","9.7995100615303e-08","2.80472713599953e-07","0.64","0.64","0.64","1.14960956803472","0","2.87642961899111","13.0684216020788","8.79999438563398","25.1865479958258","1184.86436945814","1193.93601102068","-589.432184729068","0.5464","-297.350615410793","0.5899","1001","0.00471523214148306","-292.081569318276","0.4717","1001","0.00362931942465028",NA,NA,NA,NA,"8.88001608848572"
"151","Bulssico_Cip","no_SIM_wo_fitm","success","1.92142352828754e-08","1.79791499988356e-08","2.04867534706866e-08","1","1","1","1.92142352828754e-08","1.79791499988356e-08","2.04867534706866e-08","1","1","1","1","1","1","1","1","1","1.92142352828754e-08","1.79791499988356e-08","2.04867534706866e-08","0","0","0",NA,NA,NA,NA,NA,NA,NA,NA,NA,NA,NA,NA,"4418.30816296302","4422.47358081725","-2208.15408148151","0","-1084.21494148572","0.9185","1001","0.00818004163996666","-1123.93913999579","0","1001","0.00139389298255732",NA,NA,NA,NA,"0.368695020675659"
"152","Bulssico_Cip","no_SIM_fitm","success","1.825041675787e-08","1.68179771272615e-08","1.973575375725e-08","1.09340946810632","1.01517056338181","1.17959427037405","1.825041675787e-08","1.68179771272615e-08","1.973575375725e-08","1.09340946810632","1.01517056338181","1.17959427037405","1","1","1","1","1","1",NA,NA,NA,NA,NA,NA,NA,NA,NA,NA,NA,NA,NA,NA,NA,NA,NA,NA,"4414.72758425994","4423.0584199684","-2205.36379212997","0","-1085.07639573504","0.9992","1001","0.0135649364465038","-1120.28739639493","0","1001","0.00231000718018648",NA,NA,NA,NA,"3.21157193183899"
"153","Bulssico_Cip","no_SIM_fitm_unconstr","success","1.98396466950309e-08","1.83405206611307e-08","2.13890251577841e-08","0.815335453473249","0.744949713135704","0.893461794443796","1.98396466950309e-08","1.83405206611307e-08","2.13890251577841e-08","1.61262946609731","1.43947421327336","1.81360173809419","1.97787237047974","1.76549935016483","2.22436266001733","1","1","1",NA,NA,NA,NA,NA,NA,NA,NA,NA,NA,NA,NA,NA,NA,NA,NA,NA,NA,"4317.75737424823","4330.25362781093","-2155.87868712412","0","-1078.31171083454","0.00129999999999997","1001","0.00195976088283856","-1077.56697628957","0","1001","0.017771110993135",NA,NA,NA,NA,"26.7924520969391"
"154","Bulssico_Cip","hom_wo_fitm","success","1.38524637797774e-08","1.26486272264844e-08","1.5102324773351e-08","1","1","1","5.87531915418514e-08","5.32966671986754e-08","6.44575808621332e-08","1","1","1","1","1","1","4.24135319722855","3.84745039192818","4.65314920774109",NA,NA,NA,NA,NA,NA,NA,NA,NA,NA,NA,NA,NA,NA,NA,NA,NA,NA,"4044.59108662726","4040.59108662726","-2020.29554331363","0.4693","-1052.4130577163","0.2333","1001","0.00581309366576155","-967.882485597334","0.718","1001","0.00434227706488821","-987.7174452625","0","1001","0.00100240702067178","0.494468927383423"
"155","Bulssico_Cip","hom_fitm","success","1.3934899802898e-08","1.25513745472417e-08","1.53794188936249e-08","0.991110599433492","0.919774105884667","1.06961205540292","5.90614090078954e-08","5.3042017974115e-08","6.53889688189086e-08","0.991110599433492","0.919774105884667","1.06961205540292","1","1","1","4.23838060146028","3.806415455035","4.70557298609773",NA,NA,NA,NA,NA,NA,NA,NA,NA,NA,NA,NA,NA,NA,NA,NA,NA,NA,"4046.5373754015","4059.0336289642","-2020.26868770075","0.3967","-1052.47222983381","0.1923","1001","0.0055170005730214","-967.796457866936","0.6813","1001","0.00411819748719577",NA,NA,NA,NA,"13.4105060100555"
"156","Bulssico_Cip","hom_fitm_unconstr","success","1.37249683159527e-08","1.22130370254903e-08","1.5306490178024e-08","1.01393904451969","0.91564027262847","1.12631625226487","5.99792121273798e-08","5.33305690597555e-08","6.69847644957156e-08","0.965243538383292","0.865569231248425","1.07959098102551","0.95197393137231","0.853669888665202","1.0647493918502","4.37008018864898","3.88566063192793","4.91108083945009",NA,NA,NA,NA,NA,NA,NA,NA,NA,NA,NA,NA,NA,NA,NA,NA,NA,NA,"4048.13084505937","4052.46168076783","-2020.06542252968","0.3838","-1052.37850691086","0.3001","1001","0.0062976723743684","-967.686915618821","0.5263","1001","0.00351004456912885","-987.581208645138","0","1001","0.000907265844550253","3.37070178985596"
"157","Bulssico_Cip","het_zero_div","success",NA,NA,NA,NA,NA,NA,NA,NA,NA,NA,NA,NA,NA,NA,NA,NA,NA,NA,"1.6411573658239e-08","1.51861747965883e-08","1.76783631666762e-08","3.98862338006111","3.28083862073923","4.76387848053704",NA,NA,NA,NA,NA,NA,"0","0","0",NA,NA,NA,"4233.28635651547","4241.61719222394","-2114.64317825774","0","-1060.18081176644","0.7769","1001","0.00693439368761262","-1054.4623664913","0","1001","0.00119467880031277",NA,NA,NA,NA,"4.02940320968628"
"158","Bulssico_Cip","het_div","success",NA,NA,NA,NA,NA,NA,NA,NA,NA,NA,NA,NA,NA,NA,NA,"0.0343506750384226","1.36515642027259e-14","5.93563380117461","1.38525060544732e-08","1.26486148962826e-08","1.51023110003919e-08","121.962358912841","31.6660099279145","21247.3126952774","4.72104994849267e-10","1.87570438654247e-22","8.22463794565764e-08","0.999720640728251","0.998763064388947","1","0.00765677570371578","0","1800726.08368065","0.0340808365643569","1.35405419002634e-14","5.9372924388665","4048.20085882184","4064.86253023877","-2020.10042941092","0.3228","-1052.41305771858","0.2266","1001","0.00581311206329671","-967.687371692343","0.5334","1001","0.00351284998878676",NA,NA,NA,NA,"57.9439780712128"
"159","Bulssico_Cip","het_zero_div_fon","success",NA,NA,NA,NA,NA,NA,NA,NA,NA,NA,NA,NA,NA,NA,NA,"1.795904416822","1.54110190346612","2.07499625299334","1.6411573658239e-08","1.51861747965883e-08","1.76783631666762e-08","3.98862338006111","3.28083862073923","4.76387848053704","3.68210173482265e-08","3.02870951353447e-08","4.39777927025062e-08","0.64","0.64","0.64","0","0","0","2.24360065128438","1.84547172416582","2.67968164530209","4233.28635651547","4241.61719222394","-2114.64317825774","0","-1060.18081176644","0.7835","1001","0.00693439368761262","-1054.4623664913","0","1001","0.00119467880031277",NA,NA,NA,NA,"3.98142004013062"
"160","Bulssico_Cip","het_div_fon","success",NA,NA,NA,NA,NA,NA,NA,NA,NA,NA,NA,NA,NA,NA,NA,"4.05957418741167","3.41294118235829","4.97034420077111","1.38523009053531e-08","1.26484766524374e-08","1.51021540059381e-08","10.2765949650324","8.48039217321748","12.8065116688086","8.00743982276619e-08","6.60785311005805e-08","9.97873049161423e-08","0.64","0.64","0.64","0.903197173258349","0","1.2797363377385","5.78058466783074","4.77022059743483","7.20366281370486","4046.21051361118","4058.70676717387","-2020.10525680559","0.3369","-1052.41305775014","0.2249","1001","0.00581302278444007","-967.692199055452","0.5372","1001","0.0035371072870295",NA,NA,NA,NA,"16.1345429420471"
"161","Cortes_Cm_opto","no_SIM_wo_fitm","success","6.35981483894039e-09","5.47773666641921e-09","7.27650129291382e-09","1","1","1","6.35981483894039e-09","5.47773666641921e-09","7.27650129291382e-09","1","1","1","1","1","1","1","1","1","6.35981483894039e-09","5.47773666641921e-09","7.27650129291382e-09","0","0","0",NA,NA,NA,NA,NA,NA,NA,NA,NA,NA,NA,NA,"632.11910887472","634.229982738893","-315.05955443736","0.6491","-145.086155808057","0.9315","1001","0.0134961426355188","-169.973398629302","0.2002","1001","0.0156833431239718",NA,NA,NA,NA,"0.206461906433105"
"162","Cortes_Cm_opto","no_SIM_fitm","success","6.51318779489678e-09","5.19062652281759e-09","7.92128834316791e-09","0.976572468962782","0.838597398071446","1.14971841729623","6.51318779489678e-09","5.19062652281759e-09","7.92128834316791e-09","0.976572468962782","0.838597398071446","1.14971841729623","1","1","1","1","1","1",NA,NA,NA,NA,NA,NA,NA,NA,NA,NA,NA,NA,NA,NA,NA,NA,NA,NA,"634.032561951095","638.254309679442","-315.016280975548","0.5635","-145.009703354276","0.902","1001","0.0118358276396121","-170.006577621271","0.1627","1001","0.0137548403979807",NA,NA,NA,NA,"0.647262096405029"
"163","Cortes_Cm_opto","no_SIM_fitm_unconstr","success","6.76338037703409e-09","5.41357502703572e-09","8.19425301376001e-09","0.821203344253826","0.670689202267762","1.01597669619593","6.76338037703409e-09","5.41357502703572e-09","8.19425301376001e-09","1.06066081192987","0.896040891944639","1.27086418695941","1.29159339078633","1.04398143766609","1.581449065146","1","1","1",NA,NA,NA,NA,NA,NA,NA,NA,NA,NA,NA,NA,NA,NA,NA,NA,NA,NA,"630.468557233647","636.801178826167","-312.234278616823","0.4926","-143.622895979562","0.4085","1001","0.00351347849445849","-168.611382637261","0.547","1001","0.0244579935778758",NA,NA,NA,NA,"5.13861203193665"
"164","Cortes_Cm_opto","hom_wo_fitm","success","5.35188127995712e-09","4.27649643977606e-09","6.5005323140557e-09","1","1","1","7.83343157281453e-09","6.41421318884911e-09","9.30596528551914e-09","1","1","1","1","1","1","1.46367812794182","1.19849691226717","1.83174046398241",NA,NA,NA,NA,NA,NA,NA,NA,NA,NA,NA,NA,NA,NA,NA,NA,NA,NA,"626.9915468216","622.9915468216","-311.4957734108","0.7915","-143.596653528969","0.8048","1001","0.0112071787489074","-167.89911988183","0.5814","1001","0.0197601585164949","-178.113493357184","0.0105","1001","0.012996690384304","0.259239912033081"
"165","Cortes_Cm_opto","hom_fitm","success","5.7697696890151e-09","4.43027317957665e-09","7.21987614331265e-09","0.918741831148618","0.787926229538459","1.08265095912414","8.61857640597015e-09","6.57085487494429e-09","1.07996333206762e-08","0.918741831148618","0.787926229538459","1.08265095912414","1","1","1","1.49374704199698","1.13884179596533","1.94538261109978",NA,NA,NA,NA,NA,NA,NA,NA,NA,NA,NA,NA,NA,NA,NA,NA,NA,NA,"627.929144252577","634.261765845097","-310.964572126289","0.5279","-143.189701631157","0.6442","1001","0.00682416155398391","-167.774870495131","0.3702","1001","0.0123121818150358",NA,NA,NA,NA,"2.62274885177612"
"166","Cortes_Cm_opto","hom_fitm_unconstr","success","5.92542717812245e-09","4.32732372985237e-09","7.65696007903494e-09","0.890782061616427","0.70902612222253","1.1423430871274","8.38954915414824e-09","5.99946140719125e-09","1.09480483508566e-08","0.941377818824389","0.767284060376863","1.1802766084574","1.056799254709","0.82407625995412","1.32770541073088","1.41585558339552","1.01249432772411","1.93873850857802",NA,NA,NA,NA,NA,NA,NA,NA,NA,NA,NA,NA,NA,NA,NA,NA,NA,NA,"629.813854472617","630.035602200963","-310.906927236308","0.5192","-143.157290978934","0.5597","1001","0.00562674831270404","-167.749636257375","0.4381","1001","0.0141768730769847","-180.55014933757","0.0851","1001","0.029807642856126","0.802470684051514"
"167","Cortes_Cm_opto","het_zero_div","success",NA,NA,NA,NA,NA,NA,NA,NA,NA,NA,NA,NA,NA,NA,NA,NA,NA,NA,"6.27715956384055e-09","5.29389147399993e-09","7.26149805693999e-09","0.131230297010738","0","1.00729844213082",NA,NA,NA,NA,NA,NA,"0","0","0",NA,NA,NA,"633.996501154048","638.218248882395","-314.998250577024","0.6245","-144.857208555235","0.923","1001","0.0133061749825338","-170.141042021789","0.1811","1001","0.0154909277092997",NA,NA,NA,NA,"0.585723161697388"
"168","Cortes_Cm_opto","het_div","success",NA,NA,NA,NA,NA,NA,NA,NA,NA,NA,NA,NA,NA,NA,NA,"1.51650838930315","1.68477438562682e-16","61.1542293211642","5.34481934446919e-09","4.26550556816971e-09","6.50657319555529e-09","0.517509859062464","0.124482741132018","61.1946142684227","4.1885011204125e-06","3.07087322867281e-25","Inf","0.000659942835514722","0","1","0.915271625489583","0","1.54310314326015","783.65625673518","5.74551361001667e-17","Inf","630.85445683192","639.297952288613","-311.42722841596","0.7584","-143.596730823274","0.817","1001","0.0111913515055533","-167.830497592686","0.5185","1001","0.0173140613295958",NA,NA,NA,NA,"6.03732895851135"
"169","Cortes_Cm_opto","het_zero_div_fon","NA",NA,NA,NA,NA,NA,NA,NA,NA,NA,NA,NA,NA,NA,NA,NA,NA,NA,NA,NA,NA,NA,NA,NA,NA,NA,NA,NA,NA,NA,NA,NA,NA,NA,NA,NA,NA,"Inf","Inf","-Inf","0","-Inf","0","0","1","-Inf","0","0","1",NA,NA,NA,NA,"0"
"170","Cortes_Cm_opto","het_div_fon","NA",NA,NA,NA,NA,NA,NA,NA,NA,NA,NA,NA,NA,NA,NA,NA,NA,NA,NA,NA,NA,NA,NA,NA,NA,NA,NA,NA,NA,NA,NA,NA,NA,NA,NA,NA,NA,"Inf","Inf","-Inf","0","-Inf","0","0","1","-Inf","0","0","1",NA,NA,NA,NA,"0"
"171","Cortes_Cm_rif","no_SIM_wo_fitm","success","1.25815511803107e-08","1.10257263963276e-08","1.41630737715521e-08","1","1","1","1.25815511803107e-08","1.10257263963276e-08","1.41630737715521e-08","1","1","1","1","1","1","1","1","1","1.25815511803107e-08","1.10257263963276e-08","1.41630737715521e-08","0","0","0",NA,NA,NA,NA,NA,NA,NA,NA,NA,NA,NA,NA,"676.512918464249","678.573361474796","-337.256459232125","0.4088","-161.112942129703","0.8014","1001","0.0292141560688134","-176.143517102421","0.1287","1001","0.0330592330358217",NA,NA,NA,NA,"0.239346981048584"
"172","Cortes_Cm_rif","no_SIM_fitm","success","1.28518262752144e-08","1.02061158514114e-08","1.56382336206353e-08","0.983528095500204","0.863051409302534","1.13282764438935","1.28518262752144e-08","1.02061158514114e-08","1.56382336206353e-08","0.983528095500204","0.863051409302534","1.13282764438935","1","1","1","1","1","1",NA,NA,NA,NA,NA,NA,NA,NA,NA,NA,NA,NA,NA,NA,NA,NA,NA,NA,"678.455586932106","682.576472953199","-337.227793466053","0.3631","-160.882961074818","0.7848","1001","0.0268106879548791","-176.344832391234","0.1016","1001","0.0303459972234272",NA,NA,NA,NA,"1.55825304985046"
"173","Cortes_Cm_rif","no_SIM_fitm_unconstr","success","1.29605916184122e-08","1.02886512774229e-08","1.57765695388346e-08","0.949676917077866","0.809955500010577","1.12569011549564","1.29605916184122e-08","1.02886512774229e-08","1.57765695388346e-08","1.0068748293528","0.870561009272824","1.17800011963734","1.06022881176362","0.894451159775419","1.24312363992794","1","1","1",NA,NA,NA,NA,NA,NA,NA,NA,NA,NA,NA,NA,NA,NA,NA,NA,NA,NA,"679.929644845872","686.110973877511","-336.964822422936","0.3451","-160.677380676135","0.6833","1001","0.021312224976372","-176.287441746801","0.1496","1001","0.0358454322835707",NA,NA,NA,NA,"12.3113830089569"
"174","Cortes_Cm_rif","hom_wo_fitm","success","1.29020239172447e-08","1.07386612380269e-08","1.51093916232711e-08","1","1","1","1.22383587387654e-08","1.00219589268393e-08","1.45172342866165e-08","1","1","1","1","1","1","0.948561157324146","0.77677417055816","1.13965404695213",NA,NA,NA,NA,NA,NA,NA,NA,NA,NA,NA,NA,NA,NA,NA,NA,NA,NA,"678.341259730385","674.341259730385","-337.170629865192","0.4054","-161.071571507497","0.8277","1001","0.0300920007941924","-176.099058357695","0.1038","1001","0.0319865385230431","-176.243435483593","0.14","1001","0.0340708426589751","0.333786725997925"
"175","Cortes_Cm_rif","hom_fitm","success","1.31878072849512e-08","1.01250507575548e-08","1.64143444836208e-08","0.982959100202133","0.862695637358736","1.13202443392283","1.25093079028601e-08","9.5178939033753e-09","1.57554461255011e-08","0.982959100202133","0.862695637358736","1.13202443392283","1","1","1","0.948551008713527","0.721719213643371","1.23548100670273",NA,NA,NA,NA,NA,NA,NA,NA,NA,NA,NA,NA,NA,NA,NA,NA,NA,NA,"680.279775184229","686.461104215868","-337.139887592115","0.3615","-160.833080828868","0.8183","1001","0.0275315563302653","-176.306806763247","0.0872","1001","0.0292677184231167",NA,NA,NA,NA,"6.05486392974854"
"176","Cortes_Cm_rif","hom_fitm_unconstr","success","1.57646468255682e-08","1.16164868115496e-08","2.00529883372135e-08","0.847591850914962","0.701445982391204","1.04222283945178","1.0838213253971e-08","7.56682803846622e-09","1.44646439745113e-08","1.09686624772758","0.918126210224722","1.34306398826112","1.29409720792328","1.05242967838293","1.58456453635238","0.6875011774062","0.479987158747751","0.93300267368231",NA,NA,NA,NA,NA,NA,NA,NA,NA,NA,NA,NA,NA,NA,NA,NA,NA,NA,"678.84095842398","678.961844445073","-335.42047921199","0.2924","-159.814244868713","0.4998","1001","0.011683438530339","-175.606234343278","0.2159","1001","0.0497796386083834","-180.007556264776","0.2692","1001","0.119785581039479","1.58478999137878"
"177","Cortes_Cm_rif","het_zero_div","success",NA,NA,NA,NA,NA,NA,NA,NA,NA,NA,NA,NA,NA,NA,NA,NA,NA,NA,"1.25816780195886e-08","1.10257263903289e-08","1.41630737754727e-08","4.89523009920754e-10","0","0.205775818628438",NA,NA,NA,NA,NA,NA,"0","0","0",NA,NA,NA,"678.512918497246","682.633804518339","-337.256459248623","0.4099","-161.112909339377","0.8013","1001","0.0292145020263854","-176.143549909246","0.1275","1001","0.0330596315154253",NA,NA,NA,NA,"0.976054906845093"
"178","Cortes_Cm_rif","het_div","success",NA,NA,NA,NA,NA,NA,NA,NA,NA,NA,NA,NA,NA,NA,NA,"130636.142862834","1.63059354146761e-10","4123668.48487693","1.29025715427948e-08","1.07386463060648e-08","1.51094071505144e-08","1468707.09314925","0","46361329.6020417","0.00185010062732578","0","0.0584004294528712","0.911053705312728","0.744563233517002","1","170872.713739883","0","4.50647302267427e+51","143390.069273356","0","4526262.7887139","681.355665619614","689.5974376618","-336.677832809807","0.5345","-161.071571627946","0.8241","1001","0.0300935072961176","-175.606261181861","0.225","1001","0.0499306490833762",NA,NA,NA,NA,"29.566887140274"
"179","Cortes_Cm_rif","het_zero_div_fon","NA",NA,NA,NA,NA,NA,NA,NA,NA,NA,NA,NA,NA,NA,NA,NA,NA,NA,NA,NA,NA,NA,NA,NA,NA,NA,NA,NA,NA,NA,NA,NA,NA,NA,NA,NA,NA,"Inf","Inf","-Inf","0","-Inf","0","0","1","-Inf","0","0","1",NA,NA,NA,NA,"0"
"180","Cortes_Cm_rif","het_div_fon","NA",NA,NA,NA,NA,NA,NA,NA,NA,NA,NA,NA,NA,NA,NA,NA,NA,NA,NA,NA,NA,NA,NA,NA,NA,NA,NA,NA,NA,NA,NA,NA,NA,NA,NA,NA,NA,"Inf","Inf","-Inf","0","-Inf","0","0","1","-Inf","0","0","1",NA,NA,NA,NA,"0"
"181","Cortes_Ery_opto","no_SIM_wo_fitm","success","4.66607198685523e-09","3.99019692653682e-09","5.37641818050004e-09","1","1","1","4.66607198685523e-09","3.99019692653682e-09","5.37641818050004e-09","1","1","1","1","1","1","1","1","1","4.66607198685523e-09","3.99019692653682e-09","5.37641818050004e-09","0","0","0",NA,NA,NA,NA,NA,NA,NA,NA,NA,NA,NA,NA,"611.891191505767","614.00206536994","-304.945595752883","0.5081","-144.357168358364","0.5887","1001","0.0096835525315182","-160.588427394519","0.4001","1001","0.0128067083152635",NA,NA,NA,NA,"0.188569068908691"
"182","Cortes_Ery_opto","no_SIM_fitm","success","4.66726590948793e-09","3.74509002568822e-09","5.64950187039134e-09","0.999699717102052","0.853946840785595","1.1836126725076","4.66726590948793e-09","3.74509002568822e-09","5.64950187039134e-09","0.999699717102052","0.853946840785595","1.1836126725076","1","1","1","1","1","1",NA,NA,NA,NA,NA,NA,NA,NA,NA,NA,NA,NA,NA,NA,NA,NA,NA,NA,"613.891177738153","618.112925466499","-304.945588869076","0.4987","-144.355330873887","0.5754","1001","0.0096671803607361","-160.590257995189","0.3925","1001","0.0127850596554065",NA,NA,NA,NA,"0.765453815460205"
"183","Cortes_Ery_opto","no_SIM_fitm_unconstr","success","4.66518835320647e-09","3.74382714743602e-09","5.64659190776429e-09","1.02306642388847","0.835674842370751","1.2699398216489","4.66518835320647e-09","3.74382714743602e-09","5.64659190776429e-09","0.9803909083049","0.810744759681119","1.19917733587397","0.958286661953608","0.771997925879631","1.17317269660003","1","1","1",NA,NA,NA,NA,NA,NA,NA,NA,NA,NA,NA,NA,NA,NA,NA,NA,NA,NA,"615.76727735816","622.09989895068","-304.88363867908","0.5165","-144.326128737015","0.6713","1001","0.0112208781950494","-160.557509942064","0.3258","1001","0.0112326947618842",NA,NA,NA,NA,"5.67154383659363"
